( pcb2gcode 2.5.0 )
( Software-independent Gcode )

G94 ( Millimeters per minute feed rate. )
G21 ( Units == Millimeters. )

G90 ( Absolute coordinates. )
G00 S20000 ( RPM spindle speed. )
G64 P0.05000 ( set maximum deviation from commanded toolpath )
G01 F400.00000 ( Feedrate. )


G00 Z30.00000 (Retract to tool change height)
T1
M5      (Spindle stop.)
G04 P1.00000 (Wait for spindle to stop)
(MSG, Change tool bit to mill diameter 1.00000mm)
M6      (Tool change.)
M0      (Temporary machine stop.)
M3 ( Spindle on clockwise. )
G04 P1.00000 (Wait for spindle to get up to speed)
G04 P0 ( dwell for no time -- G64 should not smooth over this point )
G00 Z3.50000 ( retract )

G00 X-21.35704 Y61.65912 ( rapid move to begin. )
G01 F200.00000
( Mill infeed pass 1/1 )
G01 Z-0.20000
G04 P0 ( dwell for no time -- G64 should not smooth over this point )
G01 F400.00000
G01 X-21.35704 Y61.65912
G01 X-21.35651 Y61.65930
G01 X-21.32278 Y61.68698
G01 X-21.25346 Y61.75630
G01 X-21.13502 Y61.90065
G01 X-21.08056 Y61.98213
G01 X-20.99252 Y62.14680
G01 X-20.95503 Y62.23737
G01 X-20.90083 Y62.41604
G01 X-20.88170 Y62.51218
G01 X-20.86339 Y62.69800
G01 X-20.86339 Y62.79602
G01 X-20.88170 Y62.98185
G01 X-20.90083 Y63.07799
G01 X-20.95503 Y63.25665
G01 X-20.99252 Y63.34723
G01 X-21.08056 Y63.51190
G01 X-21.13502 Y63.59338
G01 X-21.25346 Y63.73773
G01 X-21.32278 Y63.80704
G01 X-21.46710 Y63.92548
G01 X-21.54861 Y63.97994
G01 X-21.61792 Y64.01703
G04 P0 ( dwell for no time -- G64 should not smooth over this point )
G00 Z3.50000 ( retract )

G00 X-23.10400 Y64.01703 ( rapid move to begin. )
G01 F200.00000
( Mill infeed pass 1/1 )
G01 Z-0.20000
G04 P0 ( dwell for no time -- G64 should not smooth over this point )
G01 F400.00000
G01 X-23.10400 Y64.01703
G01 X-23.14144 Y63.99701
G01 X-26.29927 Y63.99701
G04 P0 ( dwell for no time -- G64 should not smooth over this point )
G00 Z3.50000 ( retract )

G00 X-23.68602 Y61.49702 ( rapid move to begin. )
G01 F200.00000
( Mill infeed pass 1/1 )
G01 Z-0.20000
G04 P0 ( dwell for no time -- G64 should not smooth over this point )
G01 F400.00000
G01 X-23.68602 Y61.49702
G01 X-25.85723 Y61.49702
G01 X-27.20696 Y60.14726
G01 X-27.20696 Y55.14986
G01 X-27.18454 Y55.11628
G01 X-27.09213 Y54.94338
G01 X-27.05464 Y54.85283
G01 X-26.99772 Y54.66525
G01 X-26.98985 Y54.62568
G01 X-25.43920 Y53.07501
G01 X-22.74454 Y53.07501
G01 X-22.69854 Y53.13107
G01 X-22.62277 Y53.19325
G01 X-22.53634 Y53.23945
G01 X-22.44253 Y53.26790
G01 X-22.34500 Y53.27752
G01 X-20.34498 Y53.27752
G01 X-20.24744 Y53.26790
G01 X-20.15364 Y53.23945
G01 X-20.06720 Y53.19325
G01 X-19.99143 Y53.13107
G01 X-19.94543 Y53.07501
G01 X-14.20760 Y53.07501
G01 X-14.14532 Y53.12614
G01 X-14.13300 Y53.13434
G04 P0 ( dwell for no time -- G64 should not smooth over this point )
G00 Z3.50000 ( retract )

G00 X-12.87494 Y53.38586 ( rapid move to begin. )
G01 F200.00000
( Mill infeed pass 1/1 )
G01 Z-0.20000
G04 P0 ( dwell for no time -- G64 should not smooth over this point )
G01 F400.00000
G01 X-12.87494 Y53.38586
G01 X-12.84210 Y53.41283
G01 X-12.77280 Y53.48212
G01 X-12.67331 Y53.60336
G01 X-12.61886 Y53.68486
G01 X-12.60133 Y53.71763
G01 X-12.54492 Y53.82317
G01 X-12.50743 Y53.91372
G01 X-12.46188 Y54.06381
G01 X-12.44276 Y54.15992
G01 X-12.42739 Y54.31600
G01 X-12.42739 Y54.41402
G01 X-12.44276 Y54.57010
G01 X-12.46188 Y54.66622
G01 X-12.50743 Y54.81631
G01 X-12.54492 Y54.90686
G01 X-12.61886 Y55.04516
G01 X-12.67331 Y55.12667
G01 X-12.77280 Y55.24790
G01 X-12.84210 Y55.31720
G01 X-12.96333 Y55.41669
G01 X-13.04484 Y55.47114
G01 X-13.18314 Y55.54508
G01 X-13.27369 Y55.58257
G01 X-13.42378 Y55.62812
G01 X-13.51989 Y55.64724
G01 X-13.67598 Y55.66261
G01 X-13.77397 Y55.66261
G01 X-13.93008 Y55.64724
G01 X-14.02619 Y55.62812
G01 X-14.17628 Y55.58257
G01 X-14.26683 Y55.54508
G01 X-14.40514 Y55.47114
G01 X-14.48664 Y55.41669
G01 X-14.54961 Y55.36502
G01 X-15.89962 Y55.36502
G01 X-16.01133 Y55.45669
G01 X-16.09284 Y55.51115
G01 X-16.23114 Y55.58509
G01 X-16.32169 Y55.62258
G01 X-16.47178 Y55.66812
G01 X-16.56790 Y55.68722
G01 X-16.72398 Y55.70261
G01 X-16.82200 Y55.70261
G01 X-16.97808 Y55.68722
G01 X-17.07419 Y55.66812
G01 X-17.22428 Y55.62258
G01 X-17.31483 Y55.58509
G01 X-17.45314 Y55.51115
G01 X-17.53464 Y55.45669
G01 X-17.59761 Y55.40503
G01 X-18.43076 Y55.40503
G01 X-21.36098 Y58.33522
G01 X-21.36098 Y58.75450
G01 X-21.26344 Y58.76413
G01 X-21.16964 Y58.79258
G01 X-21.08320 Y58.83878
G01 X-21.00743 Y58.90096
G01 X-20.94525 Y58.97673
G01 X-20.89905 Y59.06316
G01 X-20.87060 Y59.15696
G01 X-20.86098 Y59.25450
G01 X-20.86098 Y61.15950
G01 X-20.87060 Y61.25706
G01 X-20.89905 Y61.35086
G01 X-20.94525 Y61.43730
G01 X-21.00743 Y61.51307
G01 X-21.08320 Y61.57525
G01 X-21.16964 Y61.62145
G01 X-21.26344 Y61.64990
G01 X-21.35704 Y61.65912
G01 X-21.36095 Y61.65782
G01 X-21.49966 Y61.60819
G01 X-21.58506 Y61.58223
G01 X-21.77177 Y61.53547
G01 X-21.84403 Y61.52104
G01 X-22.03075 Y61.49336
G01 X-22.09554 Y61.48696
G01 X-22.28223 Y61.47779
G01 X-22.31348 Y61.47703
G01 X-22.40850 Y61.47703
G01 X-22.43971 Y61.47779
G01 X-22.62640 Y61.48696
G01 X-22.69120 Y61.49336
G01 X-22.87792 Y61.52104
G01 X-22.95018 Y61.53547
G01 X-23.12109 Y61.57827
G01 X-23.36100 Y61.57827
G01 X-23.68602 Y61.49702
G01 X-23.73847 Y61.48391
G01 X-23.77672 Y61.43730
G01 X-23.82292 Y61.35086
G01 X-23.85137 Y61.25706
G01 X-23.86100 Y61.15950
G01 X-23.86100 Y59.25450
G01 X-23.85137 Y59.15696
G01 X-23.82292 Y59.06316
G01 X-23.77672 Y58.97673
G01 X-23.71454 Y58.90096
G01 X-23.63877 Y58.83878
G01 X-23.55234 Y58.79258
G01 X-23.45853 Y58.76413
G01 X-23.36100 Y58.75450
G01 X-23.36100 Y57.92100
G01 X-23.35859 Y57.87200
G01 X-23.34898 Y57.77447
G01 X-23.32986 Y57.67833
G01 X-23.30138 Y57.58453
G01 X-23.26389 Y57.49398
G01 X-23.21769 Y57.40756
G01 X-23.16323 Y57.32603
G01 X-23.10105 Y57.25026
G01 X-23.06809 Y57.21391
G01 X-19.55206 Y53.69792
G01 X-19.51572 Y53.66495
G01 X-19.43995 Y53.60277
G01 X-19.35844 Y53.54831
G01 X-19.27200 Y53.50211
G01 X-19.18145 Y53.46460
G01 X-19.08765 Y53.43615
G01 X-18.99151 Y53.41702
G01 X-18.89398 Y53.40742
G01 X-18.84498 Y53.40501
G01 X-17.59761 Y53.40501
G01 X-17.53464 Y53.35334
G01 X-17.45314 Y53.29889
G01 X-17.31483 Y53.22495
G01 X-17.22428 Y53.18743
G01 X-17.07419 Y53.14191
G01 X-16.97808 Y53.12279
G01 X-16.82200 Y53.10742
G01 X-16.72398 Y53.10742
G01 X-16.56790 Y53.12279
G01 X-16.47178 Y53.14191
G01 X-16.32169 Y53.18743
G01 X-16.23114 Y53.22495
G01 X-16.09284 Y53.29889
G01 X-16.01133 Y53.35334
G01 X-15.99711 Y53.36500
G01 X-14.54961 Y53.36500
G01 X-14.48664 Y53.31334
G01 X-14.40514 Y53.25888
G01 X-14.26683 Y53.18494
G01 X-14.17628 Y53.14745
G01 X-14.13300 Y53.13434
G01 X-14.04601 Y53.14735
G01 X-14.01133 Y53.15078
G01 X-13.92213 Y53.16391
G01 X-13.82109 Y53.18400
G01 X-13.76163 Y53.19350
G01 X-13.74535 Y53.19546
G01 X-13.68941 Y53.20437
G01 X-13.53219 Y53.23567
G01 X-13.46828 Y53.24862
G01 X-13.46562 Y53.24915
G01 X-13.31372 Y53.27938
G01 X-13.25337 Y53.29406
G01 X-13.24303 Y53.29703
G01 X-13.17877 Y53.31263
G01 X-13.08368 Y53.33152
G01 X-12.99627 Y53.35350
G01 X-12.95688 Y53.36543
G01 X-12.87494 Y53.38586
G01 X-12.85723 Y53.38235
G01 X-12.65088 Y53.31974
G01 X-12.56033 Y53.28225
G01 X-12.37016 Y53.18060
G01 X-12.28866 Y53.12614
G01 X-12.12198 Y52.98934
G01 X-12.05266 Y52.92002
G01 X-11.91586 Y52.75334
G01 X-11.86140 Y52.67184
G01 X-11.75975 Y52.48167
G01 X-11.72226 Y52.39112
G01 X-11.65965 Y52.18477
G01 X-11.64052 Y52.08863
G01 X-11.61939 Y51.87402
G01 X-11.61939 Y51.77600
G01 X-11.64052 Y51.56140
G01 X-11.65965 Y51.46526
G01 X-11.72226 Y51.25891
G01 X-11.75975 Y51.16836
G01 X-11.86140 Y50.97819
G01 X-11.86188 Y50.97748
G01 X-11.91586 Y50.89668
G01 X-12.05266 Y50.73001
G01 X-12.12198 Y50.66069
G01 X-12.27509 Y50.53501
G01 X-12.29259 Y50.52876
G01 X-12.38660 Y50.50016
G01 X-12.60224 Y50.44616
G01 X-12.68129 Y50.43041
G01 X-12.89691 Y50.39841
G01 X-12.96742 Y50.39145
G01 X-13.18307 Y50.38086
G01 X-13.25093 Y50.38086
G01 X-13.46655 Y50.39145
G01 X-13.53704 Y50.39841
G01 X-13.75266 Y50.43041
G01 X-13.83171 Y50.44616
G01 X-14.04735 Y50.50016
G01 X-14.14133 Y50.52876
G01 X-14.15883 Y50.53501
G01 X-16.64689 Y50.53501
G01 X-16.72398 Y50.54260
G01 X-16.82200 Y50.54260
G01 X-16.97808 Y50.52724
G01 X-17.07419 Y50.50811
G01 X-17.11732 Y50.49503
G01 X-20.08996 Y50.49503
G01 X-20.34498 Y50.43379
G01 X-20.51295 Y50.43379
G01 X-20.56906 Y50.44982
G01 X-20.75577 Y50.49658
G01 X-20.82803 Y50.51098
G01 X-21.01475 Y50.53869
G01 X-21.07960 Y50.54509
G01 X-21.26629 Y50.55424
G01 X-21.29748 Y50.55500
G01 X-21.39250 Y50.55500
G01 X-21.42366 Y50.55424
G01 X-21.61035 Y50.54509
G01 X-21.67520 Y50.53869
G01 X-21.86192 Y50.51098
G01 X-21.93418 Y50.49658
G01 X-22.10509 Y50.45376
G01 X-22.34500 Y50.45376
G01 X-22.67543 Y50.53501
G01 X-22.72089 Y50.54619
G01 X-22.74454 Y50.57502
G01 X-25.95698 Y50.57502
G01 X-26.00598 Y50.57743
G01 X-26.15231 Y50.59183
G01 X-26.24842 Y50.61096
G01 X-26.38911 Y50.65363
G01 X-26.47969 Y50.69114
G01 X-26.60935 Y50.76046
G01 X-26.69084 Y50.81489
G01 X-26.80450 Y50.90819
G01 X-26.84085 Y50.94113
G01 X-28.75761 Y52.85787
G01 X-28.79721 Y52.86577
G01 X-28.98481 Y52.92266
G01 X-29.07536 Y52.96018
G01 X-29.24826 Y53.05258
G01 X-29.32974 Y53.10704
G01 X-29.48128 Y53.23140
G01 X-29.55060 Y53.30071
G01 X-29.67496 Y53.45225
G01 X-29.72941 Y53.53373
G01 X-29.82182 Y53.70663
G01 X-29.85933 Y53.79718
G01 X-29.91626 Y53.98479
G01 X-29.93536 Y54.08093
G01 X-29.95458 Y54.27600
G01 X-29.95458 Y54.37402
G01 X-29.93536 Y54.56911
G01 X-29.91626 Y54.66525
G01 X-29.85933 Y54.85283
G01 X-29.82182 Y54.94338
G01 X-29.72941 Y55.11628
G01 X-29.70698 Y55.14986
G01 X-29.70698 Y60.66501
G01 X-29.70457 Y60.71403
G01 X-29.69017 Y60.86036
G01 X-29.67104 Y60.95648
G01 X-29.62837 Y61.09717
G01 X-29.59086 Y61.18774
G01 X-29.52154 Y61.31741
G01 X-29.46711 Y61.39890
G01 X-29.37381 Y61.51256
G01 X-29.34087 Y61.54891
G01 X-27.25863 Y63.63115
G01 X-27.22226 Y63.66404
G01 X-27.14423 Y63.72805
G01 X-27.10864 Y63.75726
G01 X-27.02713 Y63.81169
G01 X-26.89749 Y63.88096
G01 X-26.80699 Y63.91845
G01 X-26.66633 Y63.96109
G01 X-26.57021 Y63.98020
G01 X-26.47519 Y63.98957
G01 X-26.47430 Y63.98957
G01 X-26.42360 Y63.99084
G01 X-26.37664 Y63.99323
G01 X-26.37499 Y63.99330
G01 X-26.29876 Y63.99704
G01 X-26.22998 Y64.00379
G01 X-26.13384 Y64.02289
G01 X-26.08726 Y64.03702
G01 X-23.14144 Y64.03702
G01 X-23.10400 Y64.01703
G01 X-22.62734 Y64.01703
G01 X-22.43974 Y64.01700
G01 X-22.31348 Y64.01700
G01 X-22.28216 Y64.01703
G01 X-21.61792 Y64.01703
G01 X-21.58053 Y64.03702
G01 X-11.44875 Y64.03702
G01 X-11.05287 Y63.64113
G01 X-11.01652 Y63.60819
G01 X-10.90286 Y63.51489
G01 X-10.82137 Y63.46046
G01 X-10.69171 Y63.39114
G01 X-10.60113 Y63.35363
G01 X-10.46044 Y63.31096
G01 X-10.36433 Y63.29183
G01 X-10.21800 Y63.27743
G01 X-10.16900 Y63.27502
G01 X-9.12100 Y63.27502
G01 X-9.12100 Y63.02500
G01 X-9.11137 Y62.92747
G01 X-9.08292 Y62.83366
G01 X-9.03672 Y62.74723
G01 X-8.97454 Y62.67146
G01 X-8.89877 Y62.60928
G01 X-8.81234 Y62.56308
G01 X-8.71853 Y62.53463
G01 X-8.62100 Y62.52500
G01 X-5.62098 Y62.52500
G01 X-5.52344 Y62.53463
G01 X-5.42964 Y62.56308
G01 X-5.34320 Y62.60928
G01 X-5.26743 Y62.67146
G01 X-5.20526 Y62.74723
G01 X-5.15905 Y62.83366
G01 X-5.13061 Y62.92747
G01 X-5.12098 Y63.02500
G01 X-5.12098 Y66.02502
G01 X-5.13061 Y66.12256
G01 X-5.15905 Y66.21636
G01 X-5.20526 Y66.30280
G01 X-5.26743 Y66.37856
G01 X-5.34320 Y66.44074
G01 X-5.42964 Y66.48695
G01 X-5.52344 Y66.51539
G01 X-5.62098 Y66.52502
G01 X-8.62100 Y66.52502
G01 X-8.71853 Y66.51539
G01 X-8.81234 Y66.48695
G01 X-8.89877 Y66.44074
G01 X-8.97454 Y66.37856
G01 X-9.03672 Y66.30280
G01 X-9.08292 Y66.21636
G01 X-9.11137 Y66.12256
G01 X-9.12100 Y66.02502
G01 X-9.12100 Y65.77501
G01 X-9.65122 Y65.77501
G01 X-10.04711 Y66.17089
G01 X-10.08345 Y66.20384
G01 X-10.19712 Y66.29713
G01 X-10.27860 Y66.35156
G01 X-10.40827 Y66.42088
G01 X-10.49884 Y66.45840
G01 X-10.63953 Y66.50107
G01 X-10.73565 Y66.52020
G01 X-10.88198 Y66.53460
G01 X-10.93100 Y66.53701
G01 X-21.58053 Y66.53701
G01 X-21.71327 Y66.60798
G01 X-21.80385 Y66.64547
G01 X-21.98251 Y66.69967
G01 X-22.07865 Y66.71880
G01 X-22.26448 Y66.73711
G01 X-22.31348 Y66.73952
G01 X-22.40850 Y66.73952
G01 X-22.45749 Y66.73711
G01 X-22.64332 Y66.71880
G01 X-22.73946 Y66.69967
G01 X-22.91812 Y66.64547
G01 X-23.00870 Y66.60798
G01 X-23.14144 Y66.53701
G01 X-26.37499 Y66.53701
G01 X-26.42396 Y66.53460
G01 X-26.57021 Y66.52020
G01 X-26.66633 Y66.50109
G01 X-26.80699 Y66.45845
G01 X-26.89749 Y66.42096
G01 X-27.02713 Y66.35169
G01 X-27.10864 Y66.29726
G01 X-27.22226 Y66.20404
G01 X-27.25863 Y66.17112
G01 X-27.30864 Y66.12114
G01 X-27.34161 Y66.08479
G01 X-27.43490 Y65.97115
G01 X-27.48939 Y65.88967
G01 X-27.55873 Y65.76002
G01 X-27.59622 Y65.66947
G01 X-27.63894 Y65.52878
G01 X-27.65812 Y65.43267
G01 X-27.67257 Y65.28634
G01 X-27.67260 Y65.18835
G01 X-27.65820 Y65.04202
G01 X-27.63912 Y64.94588
G01 X-27.59647 Y64.80516
G01 X-27.55898 Y64.71461
G01 X-27.48969 Y64.58492
G01 X-27.43526 Y64.50341
G01 X-27.34202 Y64.38972
G01 X-27.27275 Y64.32040
G01 X-27.15911 Y64.22711
G01 X-27.07763 Y64.17263
G01 X-26.94799 Y64.10328
G01 X-26.85743 Y64.06577
G01 X-26.71674 Y64.02305
G01 X-26.62063 Y64.00389
G01 X-26.47547 Y63.98957
G01 X-26.47519 Y63.98957
G04 P0 ( dwell for no time -- G64 should not smooth over this point )
G00 Z3.50000 ( retract )

G00 X-38.87621 Y66.06500 ( rapid move to begin. )
G01 F200.00000
( Mill infeed pass 1/1 )
G01 Z-0.20000
G04 P0 ( dwell for no time -- G64 should not smooth over this point )
G01 F400.00000
G01 X-38.87621 Y66.06500
G01 X-38.01520 Y66.06500
G01 X-36.98789 Y65.03772
G01 X-37.01063 Y64.96279
G01 X-37.02975 Y64.86666
G01 X-37.05858 Y64.57402
G01 X-37.05858 Y64.47600
G01 X-37.02975 Y64.18337
G01 X-37.01063 Y64.08723
G01 X-36.92528 Y63.80585
G01 X-36.88777 Y63.71530
G01 X-36.74916 Y63.45596
G01 X-36.69470 Y63.37446
G01 X-36.50816 Y63.14715
G01 X-36.43885 Y63.07784
G01 X-36.21154 Y62.89130
G01 X-36.13004 Y62.83684
G01 X-35.87070 Y62.69823
G01 X-35.78015 Y62.66072
G01 X-35.49877 Y62.57537
G01 X-35.40263 Y62.55625
G01 X-35.11000 Y62.52742
G01 X-35.01198 Y62.52742
G01 X-34.71934 Y62.55625
G01 X-34.62321 Y62.57537
G01 X-34.34182 Y62.66072
G01 X-34.25127 Y62.69823
G01 X-33.99194 Y62.83684
G01 X-33.91043 Y62.89130
G01 X-33.68313 Y63.07784
G01 X-33.61381 Y63.14715
G01 X-33.42727 Y63.37446
G01 X-33.37281 Y63.45596
G01 X-33.23421 Y63.71530
G01 X-33.19669 Y63.80585
G01 X-33.11135 Y64.08723
G01 X-33.09222 Y64.18337
G01 X-33.06339 Y64.47600
G01 X-33.06339 Y64.57402
G01 X-33.09222 Y64.86666
G01 X-33.11135 Y64.96279
G01 X-33.19669 Y65.24418
G01 X-33.23421 Y65.33473
G01 X-33.37281 Y65.59406
G01 X-33.42727 Y65.67557
G01 X-33.61381 Y65.90287
G01 X-33.68313 Y65.97219
G01 X-33.91043 Y66.15873
G01 X-33.99194 Y66.21319
G01 X-34.25127 Y66.35179
G01 X-34.34182 Y66.38931
G01 X-34.62321 Y66.47465
G01 X-34.71934 Y66.49378
G01 X-35.01198 Y66.52261
G01 X-35.11000 Y66.52261
G01 X-35.40263 Y66.49378
G01 X-35.49877 Y66.47465
G01 X-35.57370 Y66.45192
G01 X-36.89389 Y67.77211
G01 X-36.93024 Y67.80508
G01 X-37.00600 Y67.86726
G01 X-37.08751 Y67.92172
G01 X-37.17395 Y67.96792
G01 X-37.26450 Y68.00544
G01 X-37.35830 Y68.03388
G01 X-37.45444 Y68.05301
G01 X-37.55198 Y68.06261
G01 X-37.60100 Y68.06502
G01 X-55.88900 Y68.06502
G01 X-55.93800 Y68.06261
G01 X-56.03553 Y68.05301
G01 X-56.13167 Y68.03388
G01 X-56.22547 Y68.00544
G01 X-56.31602 Y67.96792
G01 X-56.40246 Y67.92172
G01 X-56.48397 Y67.86726
G01 X-56.55974 Y67.80508
G01 X-56.59609 Y67.77211
G01 X-57.91628 Y66.45192
G01 X-57.99121 Y66.47465
G01 X-58.08734 Y66.49378
G01 X-58.37998 Y66.52261
G01 X-58.47800 Y66.52261
G01 X-58.77063 Y66.49378
G01 X-58.86677 Y66.47465
G01 X-59.14815 Y66.38931
G01 X-59.23870 Y66.35179
G01 X-59.49804 Y66.21319
G01 X-59.57954 Y66.15873
G01 X-59.80685 Y65.97219
G01 X-59.87616 Y65.90287
G01 X-59.99501 Y65.75802
G01 X-60.01335 Y65.68448
G01 X-60.02534 Y65.64494
G01 X-60.04182 Y65.58316
G01 X-60.04784 Y65.55703
G01 X-60.05170 Y65.54100
G01 X-60.12135 Y65.26290
G01 X-60.13469 Y65.19609
G01 X-60.17830 Y64.90206
G01 X-60.18386 Y64.84562
G01 X-60.19831 Y64.55154
G01 X-60.19831 Y64.49848
G01 X-60.18386 Y64.20443
G01 X-60.17830 Y64.14799
G01 X-60.13469 Y63.85396
G01 X-60.12135 Y63.78716
G01 X-60.08452 Y63.64011
G01 X-59.99600 Y63.52073
G01 X-59.95112 Y63.46605
G01 X-59.75341 Y63.24789
G01 X-59.70611 Y63.20059
G01 X-59.48798 Y63.00288
G01 X-59.43327 Y62.95800
G01 X-59.35717 Y62.90158
G01 X-59.15684 Y62.85139
G01 X-59.09412 Y62.83890
G01 X-58.80007 Y62.79526
G01 X-58.74762 Y62.79008
G01 X-58.45356 Y62.77563
G01 X-58.40441 Y62.77563
G01 X-58.11036 Y62.79008
G01 X-58.05788 Y62.79526
G01 X-57.76382 Y62.83890
G01 X-57.70111 Y62.85139
G01 X-57.40706 Y62.92505
G01 X-57.32626 Y62.94962
G01 X-57.11549 Y63.02503
G01 X-57.05113 Y63.07784
G01 X-56.98181 Y63.14715
G01 X-56.79527 Y63.37446
G01 X-56.74081 Y63.45596
G01 X-56.60221 Y63.71530
G01 X-56.56469 Y63.80585
G01 X-56.47935 Y64.08723
G01 X-56.46022 Y64.18337
G01 X-56.43139 Y64.47600
G01 X-56.43139 Y64.57402
G01 X-56.46022 Y64.86666
G01 X-56.47935 Y64.96279
G01 X-56.50208 Y65.03772
G01 X-55.47478 Y66.06500
G01 X-47.20766 Y66.06500
G01 X-46.99097 Y66.22754
G01 X-46.72097 Y66.29502
G01 X-43.72098 Y66.29502
G01 X-43.45098 Y66.22754
G01 X-43.23429 Y66.06500
G01 X-41.40572 Y66.06503
G01 X-41.25799 Y66.11788
G01 X-41.17290 Y66.14374
G01 X-40.87884 Y66.21740
G01 X-40.81204 Y66.23074
G01 X-40.51801 Y66.27435
G01 X-40.46157 Y66.27991
G01 X-40.16752 Y66.29436
G01 X-40.11446 Y66.29436
G01 X-39.82038 Y66.27991
G01 X-39.76394 Y66.27435
G01 X-39.46991 Y66.23074
G01 X-39.40310 Y66.21740
G01 X-39.10905 Y66.14374
G01 X-39.02396 Y66.11788
G01 X-38.87621 Y66.06500
G01 X-38.76313 Y65.97219
G01 X-38.69381 Y65.90287
G01 X-38.50727 Y65.67557
G01 X-38.45281 Y65.59406
G01 X-38.31421 Y65.33473
G01 X-38.27669 Y65.24418
G01 X-38.19135 Y64.96279
G01 X-38.17222 Y64.86666
G01 X-38.14339 Y64.57402
G01 X-38.14339 Y64.47600
G01 X-38.17222 Y64.18337
G01 X-38.19135 Y64.08723
G01 X-38.21408 Y64.01230
G01 X-34.35389 Y60.15211
G01 X-34.32092 Y60.11576
G01 X-34.25874 Y60.04000
G01 X-34.20428 Y59.95849
G01 X-34.15808 Y59.87205
G01 X-34.12056 Y59.78150
G01 X-34.09212 Y59.68770
G01 X-34.07299 Y59.59156
G01 X-34.06339 Y59.49402
G01 X-34.06098 Y59.44500
G01 X-34.06098 Y58.23764
G01 X-34.00931 Y58.17467
G01 X-33.95486 Y58.09316
G01 X-33.88092 Y57.95486
G01 X-33.84343 Y57.86431
G01 X-33.79788 Y57.71422
G01 X-33.77876 Y57.61810
G01 X-33.76339 Y57.46202
G01 X-33.76339 Y57.36403
G01 X-33.77876 Y57.20792
G01 X-33.79788 Y57.11181
G01 X-33.84343 Y56.96172
G01 X-33.88092 Y56.87117
G01 X-33.95486 Y56.73286
G01 X-34.00931 Y56.65136
G01 X-34.06098 Y56.58839
G01 X-34.06098 Y55.18964
G01 X-34.00931 Y55.12667
G01 X-33.95486 Y55.04516
G01 X-33.88092 Y54.90686
G01 X-33.84343 Y54.81631
G01 X-33.79788 Y54.66622
G01 X-33.77876 Y54.57010
G01 X-33.76339 Y54.41402
G01 X-33.76339 Y54.31600
G01 X-33.77876 Y54.15992
G01 X-33.79788 Y54.06381
G01 X-33.84343 Y53.91372
G01 X-33.88092 Y53.82317
G01 X-33.95486 Y53.68486
G01 X-34.00931 Y53.60336
G01 X-34.10880 Y53.48212
G01 X-34.17810 Y53.41283
G01 X-34.29933 Y53.31334
G01 X-34.38084 Y53.25888
G01 X-34.51914 Y53.18494
G01 X-34.60969 Y53.14745
G01 X-34.75978 Y53.10191
G01 X-34.85589 Y53.08278
G01 X-35.01198 Y53.06742
G01 X-35.11000 Y53.06742
G01 X-35.26608 Y53.08278
G01 X-35.36219 Y53.10191
G01 X-35.51228 Y53.14745
G01 X-35.60283 Y53.18494
G01 X-35.74114 Y53.25888
G01 X-35.82264 Y53.31334
G01 X-35.94388 Y53.41283
G01 X-36.01317 Y53.48212
G01 X-36.11266 Y53.60336
G01 X-36.16712 Y53.68486
G01 X-36.24106 Y53.82317
G01 X-36.27855 Y53.91372
G01 X-36.32409 Y54.06381
G01 X-36.34322 Y54.15992
G01 X-36.35858 Y54.31600
G01 X-36.35858 Y54.41402
G01 X-36.34322 Y54.57010
G01 X-36.32409 Y54.66622
G01 X-36.27855 Y54.81631
G01 X-36.24106 Y54.90686
G01 X-36.16712 Y55.04516
G01 X-36.11266 Y55.12667
G01 X-36.06100 Y55.18964
G01 X-36.06100 Y56.58839
G01 X-36.11266 Y56.65136
G01 X-36.16712 Y56.73286
G01 X-36.24106 Y56.87117
G01 X-36.27855 Y56.96172
G01 X-36.32409 Y57.11181
G01 X-36.34322 Y57.20792
G01 X-36.35858 Y57.36403
G01 X-36.35858 Y57.46202
G01 X-36.34322 Y57.61810
G01 X-36.32409 Y57.71422
G01 X-36.27855 Y57.86431
G01 X-36.24106 Y57.95486
G01 X-36.16712 Y58.09316
G01 X-36.11266 Y58.17467
G01 X-36.06100 Y58.23764
G01 X-36.06100 Y59.03080
G01 X-39.62828 Y62.59811
G01 X-39.70321 Y62.57537
G01 X-39.79934 Y62.55625
G01 X-40.09198 Y62.52742
G01 X-40.19000 Y62.52742
G01 X-40.48263 Y62.55625
G01 X-40.57877 Y62.57537
G01 X-40.65370 Y62.59811
G01 X-43.49789 Y59.75391
G01 X-43.53424 Y59.72095
G01 X-43.61000 Y59.65877
G01 X-43.69151 Y59.60431
G01 X-43.77795 Y59.55811
G01 X-43.86850 Y59.52059
G01 X-43.96230 Y59.49214
G01 X-44.05844 Y59.47302
G01 X-44.15598 Y59.46342
G01 X-44.20500 Y59.46100
G01 X-49.12376 Y59.46100
G04 P0 ( dwell for no time -- G64 should not smooth over this point )
G00 Z3.50000 ( retract )

G00 X-50.46216 Y59.46103 ( rapid move to begin. )
G01 F200.00000
( Mill infeed pass 1/1 )
G01 Z-0.20000
G04 P0 ( dwell for no time -- G64 should not smooth over this point )
G01 F400.00000
G01 X-50.46216 Y59.46103
G01 X-50.47314 Y59.45516
G01 X-50.55464 Y59.40070
G01 X-50.61759 Y59.34904
G01 X-52.98362 Y59.34904
G01 X-53.09530 Y59.44068
G01 X-53.12568 Y59.46100
G04 P0 ( dwell for no time -- G64 should not smooth over this point )
G00 Z3.50000 ( retract )

G00 X-54.58822 Y59.46103 ( rapid move to begin. )
G01 F200.00000
( Mill infeed pass 1/1 )
G01 Z-0.20000
G04 P0 ( dwell for no time -- G64 should not smooth over this point )
G01 F400.00000
G01 X-54.58822 Y59.46103
G01 X-61.56631 Y59.46100
G01 X-61.61530 Y59.46342
G01 X-61.71284 Y59.47302
G01 X-61.80898 Y59.49214
G01 X-61.90278 Y59.52059
G01 X-61.99333 Y59.55811
G01 X-62.07977 Y59.60431
G01 X-62.16128 Y59.65877
G01 X-62.23704 Y59.72095
G01 X-62.27339 Y59.75391
G01 X-64.21609 Y61.69661
G01 X-64.24905 Y61.73296
G01 X-64.31123 Y61.80872
G01 X-64.36569 Y61.89023
G01 X-64.41189 Y61.97667
G01 X-64.44941 Y62.06722
G01 X-64.47786 Y62.16102
G01 X-64.49698 Y62.25716
G01 X-64.50659 Y62.35470
G01 X-64.50900 Y62.40369
G01 X-64.50900 Y62.79993
G01 X-64.57804 Y62.83684
G01 X-64.65954 Y62.89130
G01 X-64.88685 Y63.07784
G01 X-64.95616 Y63.14715
G01 X-65.14270 Y63.37446
G01 X-65.19716 Y63.45596
G01 X-65.33577 Y63.71530
G01 X-65.37328 Y63.80585
G01 X-65.45863 Y64.08723
G01 X-65.47775 Y64.18337
G01 X-65.50658 Y64.47600
G01 X-65.50658 Y64.57402
G01 X-65.47775 Y64.86666
G01 X-65.45863 Y64.96279
G01 X-65.37328 Y65.24418
G01 X-65.33577 Y65.33473
G01 X-65.19716 Y65.59406
G01 X-65.18009 Y65.61961
G01 X-65.14270 Y65.67557
G01 X-64.95616 Y65.90287
G01 X-64.88685 Y65.97219
G01 X-64.77372 Y66.06503
G01 X-64.62599 Y66.11788
G01 X-64.54090 Y66.14374
G01 X-64.24684 Y66.21740
G01 X-64.18004 Y66.23074
G01 X-63.88601 Y66.27435
G01 X-63.82957 Y66.27991
G01 X-63.53552 Y66.29436
G01 X-63.48246 Y66.29436
G01 X-63.18838 Y66.27991
G01 X-63.13194 Y66.27435
G01 X-62.83849 Y66.23081
G01 X-62.83796 Y66.23048
G01 X-62.78353 Y66.19416
G01 X-62.54474 Y66.01707
G01 X-62.50288 Y65.98273
G01 X-62.28475 Y65.78502
G01 X-62.24898 Y65.74925
G01 X-62.05127 Y65.53112
G01 X-62.01693 Y65.48926
G01 X-61.83984 Y65.25047
G01 X-61.80352 Y65.19604
G01 X-61.80319 Y65.19551
G01 X-61.75965 Y64.90206
G01 X-61.75409 Y64.84562
G01 X-61.73964 Y64.55154
G01 X-61.73964 Y64.49848
G01 X-61.75409 Y64.20443
G01 X-61.75965 Y64.14799
G01 X-61.80326 Y63.85396
G01 X-61.81660 Y63.78716
G01 X-61.89026 Y63.49310
G01 X-61.91612 Y63.40801
G01 X-61.96415 Y63.27375
G01 X-61.96836 Y63.26102
G01 X-61.96658 Y63.22475
G01 X-61.95698 Y63.12721
G01 X-61.93786 Y63.03107
G01 X-61.90941 Y62.93727
G01 X-61.87189 Y62.84672
G01 X-61.82569 Y62.76028
G01 X-61.77123 Y62.67878
G01 X-61.70905 Y62.60301
G01 X-61.67609 Y62.56666
G01 X-60.57040 Y61.46102
G01 X-60.36806 Y61.37720
G01 X-60.32798 Y61.36173
G01 X-60.22996 Y61.32666
G01 X-60.16042 Y61.30550
G01 X-60.06240 Y61.28096
G01 X-60.00088 Y61.26869
G01 X-59.90286 Y61.25414
G01 X-59.84602 Y61.24853
G01 X-59.74802 Y61.24370
G01 X-59.72026 Y61.24304
G01 X-45.22100 Y61.24304
G01 X-45.19324 Y61.24370
G01 X-45.09519 Y61.24853
G01 X-45.03835 Y61.25414
G01 X-44.94033 Y61.26869
G01 X-44.87881 Y61.28096
G01 X-44.78079 Y61.30550
G01 X-44.71125 Y61.32666
G01 X-44.61323 Y61.36173
G01 X-44.58282 Y61.37327
G01 X-44.54803 Y61.40939
G01 X-44.48214 Y61.48208
G01 X-44.42941 Y61.54637
G01 X-44.37040 Y61.62595
G01 X-44.32049 Y61.70067
G01 X-44.26855 Y61.78736
G01 X-44.24076 Y61.83943
G01 X-44.23299 Y61.87847
G01 X-44.22339 Y61.97601
G01 X-44.22098 Y62.02501
G01 X-44.22098 Y62.52500
G01 X-43.72098 Y62.52500
G01 X-43.62344 Y62.53463
G01 X-43.58326 Y62.54682
G01 X-43.43797 Y62.64223
G01 X-43.37775 Y62.68180
G01 X-43.33817 Y62.74202
G01 X-42.06789 Y64.01230
G01 X-42.09063 Y64.08723
G01 X-42.10975 Y64.18337
G01 X-42.13858 Y64.47600
G01 X-42.13858 Y64.57402
G01 X-42.10975 Y64.86666
G01 X-42.09063 Y64.96279
G01 X-42.00528 Y65.24418
G01 X-41.96777 Y65.33473
G01 X-41.82916 Y65.59406
G01 X-41.81209 Y65.61961
G01 X-41.77470 Y65.67557
G01 X-41.58816 Y65.90287
G01 X-41.51885 Y65.97219
G01 X-41.40572 Y66.06503
G04 P0 ( dwell for no time -- G64 should not smooth over this point )
G00 Z3.50000 ( retract )

G00 X-43.23426 Y66.06500 ( rapid move to begin. )
G01 F200.00000
( Mill infeed pass 1/1 )
G01 Z-0.20000
G04 P0 ( dwell for no time -- G64 should not smooth over this point )
G01 F400.00000
G01 X-43.23426 Y66.06500
G01 X-43.22418 Y66.05743
G01 X-43.22098 Y66.02502
G01 X-43.22098 Y63.02500
G01 X-43.23061 Y62.92747
G01 X-43.24280 Y62.88726
G01 X-43.33817 Y62.74202
G04 P0 ( dwell for no time -- G64 should not smooth over this point )
G00 Z3.50000 ( retract )

G00 X-43.43797 Y62.64223 ( rapid move to begin. )
G01 F200.00000
( Mill infeed pass 1/1 )
G01 Z-0.20000
G04 P0 ( dwell for no time -- G64 should not smooth over this point )
G01 F400.00000
G01 X-43.43797 Y62.64223
G01 X-44.24076 Y61.83943
G04 P0 ( dwell for no time -- G64 should not smooth over this point )
G00 Z3.50000 ( retract )

G00 X-47.20766 Y66.06500 ( rapid move to begin. )
G01 F200.00000
( Mill infeed pass 1/1 )
G01 Z-0.20000
G04 P0 ( dwell for no time -- G64 should not smooth over this point )
G01 F400.00000
G01 X-47.20766 Y66.06500
G01 X-47.21780 Y66.05741
G01 X-47.22100 Y66.02502
G01 X-47.22100 Y63.02503
G01 X-57.11549 Y63.02503
G04 P0 ( dwell for no time -- G64 should not smooth over this point )
G00 Z3.50000 ( retract )

G00 X-59.99501 Y65.75802 ( rapid move to begin. )
G01 F200.00000
( Mill infeed pass 1/1 )
G01 Z-0.20000
G04 P0 ( dwell for no time -- G64 should not smooth over this point )
G01 F400.00000
G01 X-59.99501 Y65.75802
G01 X-60.00012 Y65.78370
G01 X-60.02857 Y65.87750
G01 X-60.06608 Y65.96805
G01 X-60.11228 Y66.05449
G01 X-60.16674 Y66.13600
G01 X-60.22892 Y66.21176
G01 X-60.26189 Y66.24811
G01 X-61.78589 Y67.77211
G01 X-61.82224 Y67.80508
G01 X-61.89800 Y67.86726
G01 X-61.97951 Y67.92172
G01 X-62.06595 Y67.96792
G01 X-62.15650 Y68.00544
G01 X-62.25030 Y68.03388
G01 X-62.34644 Y68.05301
G01 X-62.44398 Y68.06261
G01 X-62.49300 Y68.06502
G01 X-66.04900 Y68.06502
G01 X-66.09800 Y68.06261
G01 X-66.19553 Y68.05301
G01 X-66.29167 Y68.03388
G01 X-66.38547 Y68.00544
G01 X-66.47602 Y67.96792
G01 X-66.56246 Y67.92172
G01 X-66.64397 Y67.86726
G01 X-66.71974 Y67.80508
G01 X-66.75609 Y67.77211
G01 X-68.00320 Y66.52502
G01 X-70.08900 Y66.52502
G01 X-70.18653 Y66.51539
G01 X-70.28034 Y66.48695
G01 X-70.36677 Y66.44074
G01 X-70.44254 Y66.37856
G01 X-70.50472 Y66.30280
G01 X-70.55092 Y66.21636
G01 X-70.57937 Y66.12256
G01 X-70.58900 Y66.02502
G01 X-70.58900 Y63.02500
G01 X-70.57937 Y62.92747
G01 X-70.55092 Y62.83366
G01 X-70.50472 Y62.74723
G01 X-70.44254 Y62.67146
G01 X-70.36677 Y62.60928
G01 X-70.28034 Y62.56308
G01 X-70.18653 Y62.53463
G01 X-70.08900 Y62.52500
G01 X-69.58900 Y62.52500
G01 X-69.58900 Y60.96900
G01 X-69.58658 Y60.92000
G01 X-69.57698 Y60.82247
G01 X-69.55786 Y60.72633
G01 X-69.52941 Y60.63253
G01 X-69.49189 Y60.54198
G01 X-69.44569 Y60.45554
G01 X-69.39123 Y60.37403
G01 X-69.32905 Y60.29826
G01 X-69.29609 Y60.26191
G01 X-69.08100 Y60.04680
G01 X-69.08100 Y58.23764
G01 X-69.13266 Y58.17467
G01 X-69.18712 Y58.09316
G01 X-69.26106 Y57.95486
G01 X-69.29855 Y57.86431
G01 X-69.34409 Y57.71422
G01 X-69.36322 Y57.61810
G01 X-69.37858 Y57.46202
G01 X-69.37858 Y57.36403
G01 X-69.36322 Y57.20792
G01 X-69.34409 Y57.11181
G01 X-69.29855 Y56.96172
G01 X-69.26106 Y56.87117
G01 X-69.18712 Y56.73286
G01 X-69.13266 Y56.65136
G01 X-69.08100 Y56.58839
G01 X-69.08100 Y55.18964
G01 X-69.13266 Y55.12667
G01 X-69.18712 Y55.04516
G01 X-69.26106 Y54.90686
G01 X-69.29855 Y54.81631
G01 X-69.34409 Y54.66622
G01 X-69.36322 Y54.57010
G01 X-69.37858 Y54.41402
G01 X-69.37858 Y54.31600
G01 X-69.36322 Y54.15992
G01 X-69.34409 Y54.06381
G01 X-69.29855 Y53.91372
G01 X-69.26106 Y53.82317
G01 X-69.18712 Y53.68486
G01 X-69.13266 Y53.60336
G01 X-69.03317 Y53.48212
G01 X-68.96388 Y53.41283
G01 X-68.84264 Y53.31334
G01 X-68.76114 Y53.25888
G01 X-68.62283 Y53.18494
G01 X-68.53228 Y53.14745
G01 X-68.38219 Y53.10191
G01 X-68.28608 Y53.08278
G01 X-68.13000 Y53.06742
G01 X-68.03198 Y53.06742
G01 X-67.87589 Y53.08278
G01 X-67.77978 Y53.10191
G01 X-67.62969 Y53.14745
G01 X-67.53914 Y53.18494
G01 X-67.40084 Y53.25888
G01 X-67.31933 Y53.31334
G01 X-67.19810 Y53.41283
G01 X-67.12880 Y53.48212
G01 X-67.02931 Y53.60336
G01 X-66.97486 Y53.68486
G01 X-66.90092 Y53.82317
G01 X-66.86343 Y53.91372
G01 X-66.81788 Y54.06381
G01 X-66.79876 Y54.15992
G01 X-66.78339 Y54.31600
G01 X-66.78339 Y54.41402
G01 X-66.79876 Y54.57010
G01 X-66.81788 Y54.66622
G01 X-66.86343 Y54.81631
G01 X-66.90092 Y54.90686
G01 X-66.97486 Y55.04516
G01 X-67.02931 Y55.12667
G01 X-67.08098 Y55.18964
G01 X-67.08098 Y56.58839
G01 X-67.02931 Y56.65136
G01 X-66.97486 Y56.73286
G01 X-66.90092 Y56.87117
G01 X-66.86343 Y56.96172
G01 X-66.81788 Y57.11181
G01 X-66.79876 Y57.20792
G01 X-66.78339 Y57.36403
G01 X-66.78339 Y57.46202
G01 X-66.79876 Y57.61810
G01 X-66.81788 Y57.71422
G01 X-66.86343 Y57.86431
G01 X-66.90092 Y57.95486
G01 X-66.97486 Y58.09316
G01 X-67.02931 Y58.17467
G01 X-67.08098 Y58.23764
G01 X-67.08098 Y60.46100
G01 X-67.08339 Y60.51002
G01 X-67.09299 Y60.60756
G01 X-67.11212 Y60.70370
G01 X-67.14056 Y60.79750
G01 X-67.17808 Y60.88805
G01 X-67.22428 Y60.97449
G01 X-67.27874 Y61.05600
G01 X-67.34092 Y61.13176
G01 X-67.37389 Y61.16811
G01 X-67.58898 Y61.38322
G01 X-67.58898 Y62.52500
G01 X-67.08898 Y62.52500
G01 X-66.99144 Y62.53463
G01 X-66.89764 Y62.56308
G01 X-66.81120 Y62.60928
G01 X-66.73544 Y62.67146
G01 X-66.67326 Y62.74723
G01 X-66.62705 Y62.83366
G01 X-66.59861 Y62.92747
G01 X-66.58898 Y63.02500
G01 X-66.58898 Y65.11080
G01 X-65.63478 Y66.06500
G01 X-64.77372 Y66.06503
G04 P0 ( dwell for no time -- G64 should not smooth over this point )
G00 Z3.50000 ( retract )

G00 X-61.96836 Y63.26102 ( rapid move to begin. )
G01 F200.00000
( Mill infeed pass 1/1 )
G01 Z-0.20000
G04 P0 ( dwell for no time -- G64 should not smooth over this point )
G01 F400.00000
G01 X-61.96836 Y63.26102
G01 X-62.06181 Y63.14715
G01 X-62.13113 Y63.07784
G01 X-62.35843 Y62.89130
G01 X-62.43994 Y62.83684
G01 X-62.49727 Y62.80621
G01 X-61.15208 Y61.46102
G01 X-60.57040 Y61.46102
G04 P0 ( dwell for no time -- G64 should not smooth over this point )
G00 Z3.50000 ( retract )

G00 X-46.93685 Y49.24014 ( rapid move to begin. )
G01 F200.00000
( Mill infeed pass 1/1 )
G01 Z-0.20000
G04 P0 ( dwell for no time -- G64 should not smooth over this point )
G01 F400.00000
G01 X-46.93685 Y49.24014
G01 X-46.98587 Y49.23773
G01 X-47.13220 Y49.22333
G01 X-47.22834 Y49.20420
G01 X-47.36903 Y49.16153
G01 X-47.45960 Y49.12401
G01 X-47.58927 Y49.05470
G01 X-47.67075 Y49.00024
G01 X-47.78442 Y48.90695
G01 X-47.82077 Y48.87400
G01 X-47.93334 Y48.76143
G01 X-47.97314 Y48.74014
G01 X-48.05465 Y48.68569
G01 X-48.17586 Y48.58620
G01 X-48.24517 Y48.51690
G01 X-48.34467 Y48.39567
G01 X-48.39912 Y48.31416
G01 X-48.42041 Y48.27433
G01 X-49.91487 Y46.77990
G01 X-49.94781 Y46.74355
G01 X-50.04108 Y46.62989
G01 X-50.09554 Y46.54840
G01 X-50.16486 Y46.41874
G01 X-50.20237 Y46.32819
G01 X-50.24504 Y46.18747
G01 X-50.26417 Y46.09136
G01 X-50.27857 Y45.94503
G01 X-50.28098 Y45.89601
G01 X-50.28098 Y44.69540
G01 X-50.29409 Y44.65222
G01 X-50.30097 Y44.61750
G04 P0 ( dwell for no time -- G64 should not smooth over this point )
G00 Z3.50000 ( retract )

G00 X-47.76097 Y44.61750 ( rapid move to begin. )
G01 F200.00000
( Mill infeed pass 1/1 )
G01 Z-0.20000
G04 P0 ( dwell for no time -- G64 should not smooth over this point )
G01 F400.00000
G01 X-47.76097 Y44.61750
G01 X-47.75409 Y44.65222
G01 X-47.70855 Y44.80231
G01 X-47.67106 Y44.89286
G01 X-47.59712 Y45.03116
G01 X-47.54266 Y45.11267
G01 X-47.44317 Y45.23390
G01 X-47.37388 Y45.30319
G01 X-47.25264 Y45.40269
G01 X-47.17114 Y45.45714
G01 X-47.03283 Y45.53108
G01 X-46.94228 Y45.56860
G01 X-46.79219 Y45.61412
G01 X-46.69608 Y45.63324
G01 X-46.54000 Y45.64861
G01 X-46.44198 Y45.64861
G01 X-46.28589 Y45.63324
G01 X-46.18978 Y45.61412
G01 X-46.03969 Y45.56860
G01 X-45.94914 Y45.53108
G01 X-45.81084 Y45.45714
G01 X-45.72933 Y45.40269
G01 X-45.60810 Y45.30319
G01 X-45.53880 Y45.23390
G01 X-45.47099 Y45.15125
G01 X-45.43931 Y45.11267
G01 X-45.38486 Y45.03116
G01 X-45.31092 Y44.89286
G01 X-45.27343 Y44.80231
G01 X-45.22788 Y44.65222
G01 X-45.22097 Y44.61750
G04 P0 ( dwell for no time -- G64 should not smooth over this point )
G00 Z3.50000 ( retract )

G00 X-47.76097 Y43.28443 ( rapid move to begin. )
G01 F200.00000
( Mill infeed pass 1/1 )
G01 Z-0.20000
G04 P0 ( dwell for no time -- G64 should not smooth over this point )
G01 F400.00000
G01 X-47.76097 Y43.28443
G01 X-47.76788 Y43.24981
G01 X-47.81343 Y43.09972
G01 X-47.85092 Y43.00917
G01 X-47.92486 Y42.87087
G01 X-47.97931 Y42.78936
G01 X-48.07880 Y42.66812
G01 X-48.14810 Y42.59883
G01 X-48.26933 Y42.49934
G01 X-48.35084 Y42.44488
G01 X-48.42165 Y42.40701
G04 P0 ( dwell for no time -- G64 should not smooth over this point )
G00 Z3.50000 ( retract )

G00 X-47.10027 Y42.40701 ( rapid move to begin. )
G01 F200.00000
( Mill infeed pass 1/1 )
G01 Z-0.20000
G04 P0 ( dwell for no time -- G64 should not smooth over this point )
G01 F400.00000
G01 X-47.10027 Y42.40701
G01 X-48.42165 Y42.40701
G01 X-48.49818 Y42.38786
G01 X-48.59061 Y42.36942
G01 X-48.68030 Y42.35613
G01 X-48.75625 Y42.37516
G01 X-48.83877 Y42.40008
G01 X-49.00215 Y42.45852
G01 X-49.05757 Y42.48141
G01 X-49.20814 Y42.55263
G01 X-49.24578 Y42.57272
G01 X-49.38447 Y42.65585
G01 X-49.41106 Y42.67358
G01 X-49.53839 Y42.76802
G01 X-49.55856 Y42.78456
G01 X-49.67489 Y42.89002
G01 X-49.69198 Y42.90711
G01 X-49.79744 Y43.02344
G01 X-49.81398 Y43.04361
G01 X-49.90839 Y43.17094
G01 X-49.92615 Y43.19753
G01 X-50.00926 Y43.33622
G01 X-50.02935 Y43.37386
G01 X-50.10057 Y43.52443
G01 X-50.11235 Y43.55103
G01 X-50.30097 Y44.00640
G01 X-50.30097 Y44.61750
G01 X-50.30788 Y44.65222
G01 X-50.32099 Y44.69540
G01 X-50.32099 Y46.91201
G01 X-50.32340 Y46.96103
G01 X-50.32810 Y47.00888
G01 X-50.33780 Y47.10736
G01 X-50.35693 Y47.20347
G01 X-50.39960 Y47.34416
G01 X-50.43712 Y47.43474
G01 X-50.50644 Y47.56440
G01 X-50.54184 Y47.61739
G01 X-48.91909 Y49.24014
G01 X-43.18669 Y49.24014
G01 X-43.18557 Y49.23953
G01 X-43.19083 Y49.24014
G04 P0 ( dwell for no time -- G64 should not smooth over this point )
G00 Z3.50000 ( retract )

G00 X-43.18557 Y49.23953 ( rapid move to begin. )
G01 F200.00000
( Mill infeed pass 1/1 )
G01 Z-0.20000
G04 P0 ( dwell for no time -- G64 should not smooth over this point )
G01 F400.00000
G01 X-43.18557 Y49.23953
G01 X-42.97297 Y49.21515
G01 X-42.51361 Y49.21515
G01 X-42.46487 Y49.22239
G01 X-42.37402 Y49.23136
G01 X-42.21720 Y49.23905
G01 X-42.12878 Y49.23905
G01 X-41.97196 Y49.23136
G01 X-41.88108 Y49.22239
G01 X-41.83234 Y49.21515
G01 X-41.37298 Y49.21515
G01 X-41.27298 Y49.24014
G01 X-41.07732 Y49.28906
G01 X-41.01943 Y49.33656
G01 X-40.95725 Y49.41233
G01 X-40.91105 Y49.49879
G01 X-40.88260 Y49.59257
G01 X-40.87564 Y49.66316
G01 X-40.87298 Y49.69013
G01 X-40.87298 Y51.29013
G01 X-40.88260 Y51.38766
G01 X-40.91105 Y51.48147
G01 X-40.95725 Y51.56790
G01 X-41.01943 Y51.64367
G01 X-41.09520 Y51.70585
G01 X-41.18164 Y51.75208
G01 X-41.27544 Y51.78052
G01 X-41.37298 Y51.79013
G01 X-42.97300 Y51.79013
G01 X-43.07053 Y51.78052
G01 X-43.16434 Y51.75208
G01 X-43.18664 Y51.74014
G01 X-49.43687 Y51.74014
G01 X-49.48586 Y51.73773
G01 X-49.63219 Y51.72332
G01 X-49.72831 Y51.70420
G01 X-49.86900 Y51.66153
G01 X-49.95957 Y51.62401
G01 X-50.08924 Y51.55469
G01 X-50.17072 Y51.50026
G01 X-50.28439 Y51.40697
G01 X-50.32074 Y51.37402
G01 X-52.93333 Y48.76143
G01 X-52.97313 Y48.74014
G01 X-53.01679 Y48.71101
G01 X-53.05179 Y48.68228
G01 X-53.16815 Y48.57682
G01 X-53.23577 Y48.50921
G01 X-53.34123 Y48.39285
G01 X-53.36993 Y48.35785
G01 X-53.39911 Y48.31416
G01 X-53.47305 Y48.17586
G01 X-53.51057 Y48.08531
G01 X-53.55609 Y47.93522
G01 X-53.57521 Y47.83911
G01 X-53.59055 Y47.68302
G01 X-53.59055 Y47.58500
G01 X-53.58240 Y47.50210
G01 X-53.57521 Y47.42892
G01 X-53.55609 Y47.33281
G01 X-53.51057 Y47.18272
G01 X-53.47305 Y47.09217
G01 X-53.39911 Y46.95386
G01 X-53.34466 Y46.87236
G01 X-53.24516 Y46.75112
G01 X-53.17587 Y46.68183
G01 X-53.05464 Y46.58234
G01 X-52.97313 Y46.52788
G01 X-52.93333 Y46.50660
G01 X-52.82098 Y46.39425
G01 X-52.82098 Y44.69540
G01 X-52.83409 Y44.65222
G01 X-52.84097 Y44.61750
G04 P0 ( dwell for no time -- G64 should not smooth over this point )
G00 Z3.50000 ( retract )

G00 X-52.84097 Y43.28443 ( rapid move to begin. )
G01 F200.00000
( Mill infeed pass 1/1 )
G01 Z-0.20000
G04 P0 ( dwell for no time -- G64 should not smooth over this point )
G01 F400.00000
G01 X-52.84097 Y43.28443
G01 X-52.84788 Y43.24981
G01 X-52.89340 Y43.09972
G01 X-52.93092 Y43.00917
G01 X-53.00483 Y42.87087
G01 X-53.05931 Y42.78936
G01 X-53.15880 Y42.66812
G01 X-53.20262 Y42.62428
G01 X-53.22810 Y42.59883
G01 X-53.34933 Y42.49934
G01 X-53.43084 Y42.44488
G01 X-53.56914 Y42.37094
G01 X-53.65969 Y42.33343
G01 X-53.80978 Y42.28791
G01 X-53.90590 Y42.26878
G01 X-54.06198 Y42.25342
G01 X-54.16000 Y42.25342
G01 X-54.31608 Y42.26878
G01 X-54.41219 Y42.28791
G01 X-54.56228 Y42.33343
G01 X-54.65283 Y42.37094
G01 X-54.79114 Y42.44488
G01 X-54.87264 Y42.49934
G01 X-54.99388 Y42.59883
G01 X-55.06317 Y42.66812
G01 X-55.13096 Y42.75075
G01 X-55.16266 Y42.78936
G01 X-55.21712 Y42.87087
G01 X-55.29106 Y43.00917
G01 X-55.32855 Y43.09972
G01 X-55.37409 Y43.24981
G01 X-55.38097 Y43.28443
G04 P0 ( dwell for no time -- G64 should not smooth over this point )
G00 Z3.50000 ( retract )

G00 X-55.38097 Y44.61750 ( rapid move to begin. )
G01 F200.00000
( Mill infeed pass 1/1 )
G01 Z-0.20000
G04 P0 ( dwell for no time -- G64 should not smooth over this point )
G01 F400.00000
G01 X-55.38097 Y44.61750
G01 X-55.38788 Y44.65222
G01 X-55.43343 Y44.80231
G01 X-55.47092 Y44.89286
G01 X-55.54486 Y45.03116
G01 X-55.59931 Y45.11267
G01 X-55.63099 Y45.15125
G01 X-55.65098 Y45.17564
G01 X-55.65098 Y46.07680
G01 X-53.36993 Y48.35785
G04 P0 ( dwell for no time -- G64 should not smooth over this point )
G00 Z3.50000 ( retract )

G00 X-53.01679 Y48.71101 ( rapid move to begin. )
G01 F200.00000
( Mill infeed pass 1/1 )
G01 Z-0.20000
G04 P0 ( dwell for no time -- G64 should not smooth over this point )
G01 F400.00000
G01 X-53.01679 Y48.71101
G01 X-49.66897 Y52.05881
G01 X-49.58789 Y52.06678
G01 X-49.49178 Y52.08591
G01 X-49.34169 Y52.13145
G01 X-49.25114 Y52.16894
G01 X-49.14596 Y52.22518
G01 X-49.11284 Y52.24288
G01 X-49.03133 Y52.29734
G01 X-48.91010 Y52.39683
G01 X-48.84080 Y52.46612
G01 X-48.74131 Y52.58736
G01 X-48.68686 Y52.66886
G01 X-48.61292 Y52.80717
G01 X-48.57543 Y52.89772
G01 X-48.52988 Y53.04781
G01 X-48.51076 Y53.14392
G01 X-48.50278 Y53.22500
G01 X-48.36278 Y53.36500
G01 X-46.04561 Y53.36500
G01 X-45.98264 Y53.31334
G01 X-45.90114 Y53.25888
G01 X-45.76283 Y53.18494
G01 X-45.67228 Y53.14745
G01 X-45.52219 Y53.10191
G01 X-45.42608 Y53.08278
G01 X-45.27000 Y53.06742
G01 X-45.17198 Y53.06742
G01 X-45.01589 Y53.08278
G01 X-44.91978 Y53.10191
G01 X-44.76969 Y53.14745
G01 X-44.67914 Y53.18494
G01 X-44.54084 Y53.25888
G01 X-44.45933 Y53.31334
G01 X-44.33810 Y53.41283
G01 X-44.26880 Y53.48212
G01 X-44.16931 Y53.60336
G01 X-44.11486 Y53.68486
G01 X-44.04092 Y53.82317
G01 X-44.00343 Y53.91372
G01 X-43.95788 Y54.06381
G01 X-43.93876 Y54.15992
G01 X-43.92339 Y54.31600
G01 X-43.92339 Y54.41402
G01 X-43.93876 Y54.57010
G01 X-43.95788 Y54.66622
G01 X-43.98808 Y54.76591
G04 P0 ( dwell for no time -- G64 should not smooth over this point )
G00 Z3.50000 ( retract )

G00 X-44.81998 Y55.59784 ( rapid move to begin. )
G01 F200.00000
( Mill infeed pass 1/1 )
G01 Z-0.20000
G04 P0 ( dwell for no time -- G64 should not smooth over this point )
G01 F400.00000
G01 X-44.81998 Y55.59784
G01 X-45.34500 Y56.12281
G01 X-45.37721 Y56.12598
G01 X-45.42608 Y56.13078
G01 X-45.52219 Y56.14991
G01 X-45.67228 Y56.19545
G01 X-45.76283 Y56.23294
G01 X-45.90114 Y56.30688
G01 X-45.98264 Y56.36134
G01 X-46.10388 Y56.46083
G01 X-46.17317 Y56.53012
G01 X-46.27266 Y56.65136
G01 X-46.32712 Y56.73286
G01 X-46.40106 Y56.87117
G01 X-46.43855 Y56.96172
G01 X-46.48409 Y57.11181
G01 X-46.50322 Y57.20792
G01 X-46.51119 Y57.28902
G01 X-46.57119 Y57.34902
G01 X-48.96834 Y57.34902
G01 X-49.03133 Y57.29735
G01 X-49.11284 Y57.24287
G01 X-49.25114 Y57.16898
G01 X-49.34169 Y57.13144
G01 X-49.49178 Y57.08592
G01 X-49.58789 Y57.06680
G01 X-49.74398 Y57.05143
G01 X-49.84200 Y57.05143
G01 X-49.99808 Y57.06680
G01 X-50.09419 Y57.08592
G01 X-50.24428 Y57.13144
G01 X-50.33483 Y57.16898
G01 X-50.47314 Y57.24287
G01 X-50.55464 Y57.29735
G01 X-50.61764 Y57.34902
G01 X-53.08108 Y57.34902
G01 X-53.09530 Y57.33736
G01 X-53.17681 Y57.28288
G01 X-53.31512 Y57.20894
G01 X-53.40567 Y57.17145
G01 X-53.55576 Y57.12593
G01 X-53.65187 Y57.10680
G01 X-53.80795 Y57.09141
G01 X-53.90600 Y57.09141
G01 X-54.06208 Y57.10680
G01 X-54.15819 Y57.12593
G01 X-54.30828 Y57.17145
G01 X-54.39883 Y57.20894
G01 X-54.53714 Y57.28288
G01 X-54.61864 Y57.33736
G01 X-54.68164 Y57.38905
G01 X-56.53076 Y57.38905
G01 X-56.63078 Y57.28900
G01 X-56.63876 Y57.20792
G01 X-56.65788 Y57.11181
G01 X-56.70343 Y56.96172
G01 X-56.74092 Y56.87117
G01 X-56.81486 Y56.73286
G01 X-56.86931 Y56.65136
G01 X-56.96880 Y56.53012
G01 X-57.03810 Y56.46083
G01 X-57.15933 Y56.36134
G01 X-57.24084 Y56.30688
G01 X-57.37914 Y56.23294
G01 X-57.46969 Y56.19545
G01 X-57.61978 Y56.14991
G01 X-57.67452 Y56.13904
G01 X-57.71589 Y56.13078
G01 X-57.87198 Y56.11542
G01 X-57.97000 Y56.11542
G01 X-58.12608 Y56.13078
G01 X-58.22219 Y56.14991
G01 X-58.37228 Y56.19545
G01 X-58.46283 Y56.23294
G01 X-58.60114 Y56.30688
G01 X-58.68264 Y56.36134
G01 X-58.74561 Y56.41300
G01 X-60.04678 Y56.41300
G01 X-65.95296 Y50.50682
G01 X-65.95296 Y49.68005
G01 X-65.93297 Y49.65569
G01 X-65.85974 Y49.56643
G01 X-65.80529 Y49.48495
G01 X-65.72672 Y49.33798
G01 X-65.68921 Y49.24743
G01 X-65.68299 Y49.22683
G01 X-65.68299 Y48.32709
G01 X-65.67676 Y48.30659
G01 X-65.63925 Y48.21604
G01 X-65.56069 Y48.06908
G01 X-65.50625 Y47.98759
G01 X-65.43297 Y47.89831
G01 X-65.41298 Y47.87393
G01 X-65.41298 Y44.96410
G01 X-65.45106 Y44.89286
G01 X-65.48855 Y44.80231
G01 X-65.51095 Y44.72849
G01 X-65.51098 Y44.72832
G04 P0 ( dwell for no time -- G64 should not smooth over this point )
G00 Z3.50000 ( retract )

G00 X-65.51098 Y43.17368 ( rapid move to begin. )
G01 F200.00000
( Mill infeed pass 1/1 )
G01 Z-0.20000
G04 P0 ( dwell for no time -- G64 should not smooth over this point )
G01 F400.00000
G01 X-65.51098 Y43.17368
G01 X-65.51095 Y43.17351
G01 X-65.48855 Y43.09972
G01 X-65.45106 Y43.00917
G01 X-65.37712 Y42.87087
G01 X-65.32266 Y42.78936
G01 X-65.22317 Y42.66812
G01 X-65.15388 Y42.59883
G01 X-65.03264 Y42.49934
G01 X-64.95114 Y42.44488
G01 X-64.81283 Y42.37094
G01 X-64.72228 Y42.33343
G01 X-64.57219 Y42.28791
G01 X-64.47608 Y42.26878
G01 X-64.32000 Y42.25342
G01 X-64.22198 Y42.25342
G01 X-64.06589 Y42.26878
G01 X-63.96978 Y42.28791
G01 X-63.81969 Y42.33343
G01 X-63.72914 Y42.37094
G01 X-63.59084 Y42.44488
G01 X-63.50933 Y42.49934
G01 X-63.38810 Y42.59883
G01 X-63.31880 Y42.66812
G01 X-63.21931 Y42.78936
G01 X-63.16486 Y42.87087
G01 X-63.09092 Y43.00917
G01 X-63.05343 Y43.09972
G01 X-63.00788 Y43.24981
G01 X-63.00097 Y43.28443
G04 P0 ( dwell for no time -- G64 should not smooth over this point )
G00 Z3.50000 ( retract )

G00 X-60.46097 Y44.61750 ( rapid move to begin. )
G01 F200.00000
( Mill infeed pass 1/1 )
G01 Z-0.20000
G04 P0 ( dwell for no time -- G64 should not smooth over this point )
G01 F400.00000
G01 X-60.46097 Y44.61750
G01 X-60.46788 Y44.65222
G01 X-60.51343 Y44.80231
G01 X-60.55092 Y44.89286
G01 X-60.62486 Y45.03116
G01 X-60.67931 Y45.11267
G01 X-60.71099 Y45.15125
G01 X-60.77880 Y45.23390
G01 X-60.84810 Y45.30319
G01 X-60.87296 Y45.32362
G01 X-60.87296 Y47.45254
G01 X-60.83164 Y47.46506
G01 X-60.74520 Y47.51127
G01 X-60.66943 Y47.57347
G01 X-60.60725 Y47.64924
G01 X-60.56105 Y47.73568
G01 X-60.53260 Y47.82948
G01 X-60.52298 Y47.92701
G01 X-60.52298 Y49.62701
G01 X-60.53260 Y49.72455
G01 X-60.56105 Y49.81835
G01 X-60.60725 Y49.90479
G01 X-60.66943 Y49.98055
G01 X-60.74520 Y50.04276
G01 X-60.83164 Y50.08896
G01 X-60.92544 Y50.11741
G01 X-61.02297 Y50.12701
G01 X-62.72300 Y50.12701
G01 X-62.82053 Y50.11741
G01 X-62.91434 Y50.08896
G01 X-63.00077 Y50.04276
G01 X-63.07654 Y49.98055
G01 X-63.13872 Y49.90479
G01 X-63.18492 Y49.81835
G01 X-63.21337 Y49.72455
G01 X-63.22300 Y49.62701
G01 X-63.22297 Y49.40578
G01 X-63.20372 Y49.32892
G01 X-63.18530 Y49.23654
G01 X-63.16056 Y49.06991
G01 X-63.15218 Y48.98492
G01 X-63.14398 Y48.81828
G01 X-63.14398 Y48.73575
G01 X-63.15218 Y48.56913
G01 X-63.16056 Y48.48414
G01 X-63.18530 Y48.31751
G01 X-63.20372 Y48.22513
G01 X-63.22297 Y48.14822
G01 X-63.22300 Y47.92701
G01 X-63.21337 Y47.82948
G01 X-63.18492 Y47.73568
G01 X-63.13872 Y47.64924
G01 X-63.07654 Y47.57347
G01 X-63.00077 Y47.51127
G01 X-62.94253 Y47.48015
G01 X-62.91434 Y47.46506
G01 X-62.87298 Y47.45252
G01 X-62.87298 Y44.96410
G01 X-62.91106 Y44.89286
G01 X-62.94855 Y44.80231
G01 X-62.99409 Y44.65222
G01 X-63.00097 Y44.61750
G01 X-63.00097 Y43.28443
G01 X-62.99409 Y43.24981
G01 X-62.94855 Y43.09972
G01 X-62.91106 Y43.00917
G01 X-62.83712 Y42.87087
G01 X-62.78266 Y42.78936
G01 X-62.75096 Y42.75075
G01 X-62.68317 Y42.66812
G01 X-62.61388 Y42.59883
G01 X-62.49264 Y42.49934
G01 X-62.41114 Y42.44488
G01 X-62.27283 Y42.37094
G01 X-62.18228 Y42.33343
G01 X-62.03219 Y42.28791
G01 X-61.93608 Y42.26878
G01 X-61.78000 Y42.25342
G01 X-61.68198 Y42.25342
G01 X-61.52589 Y42.26878
G01 X-61.42978 Y42.28791
G01 X-61.27969 Y42.33343
G01 X-61.18914 Y42.37094
G01 X-61.05084 Y42.44488
G01 X-60.96933 Y42.49934
G01 X-60.84810 Y42.59883
G01 X-60.77880 Y42.66812
G01 X-60.67931 Y42.78936
G01 X-60.62486 Y42.87087
G01 X-60.55092 Y43.00917
G01 X-60.51343 Y43.09972
G01 X-60.46788 Y43.24981
G01 X-60.46097 Y43.28443
G04 P0 ( dwell for no time -- G64 should not smooth over this point )
G00 Z3.50000 ( retract )

G00 X-57.92097 Y44.61750 ( rapid move to begin. )
G01 F200.00000
( Mill infeed pass 1/1 )
G01 Z-0.20000
G04 P0 ( dwell for no time -- G64 should not smooth over this point )
G01 F400.00000
G01 X-57.92097 Y44.61750
G01 X-57.92788 Y44.65222
G01 X-57.97343 Y44.80231
G01 X-58.01092 Y44.89286
G01 X-58.08486 Y45.03116
G01 X-58.13931 Y45.11267
G01 X-58.17099 Y45.15125
G01 X-58.19098 Y45.17564
G01 X-58.19098 Y47.64081
G01 X-53.73297 Y52.09881
G01 X-53.65187 Y52.10679
G01 X-53.55576 Y52.12591
G01 X-53.40567 Y52.17143
G01 X-53.31512 Y52.20895
G01 X-53.17681 Y52.28289
G01 X-53.09530 Y52.33734
G01 X-52.97410 Y52.43681
G01 X-52.90478 Y52.50613
G01 X-52.80531 Y52.62736
G01 X-52.75086 Y52.70887
G01 X-52.67692 Y52.84717
G01 X-52.63943 Y52.93772
G01 X-52.59388 Y53.08779
G01 X-52.57476 Y53.18393
G01 X-52.55939 Y53.34001
G01 X-52.55939 Y53.43803
G01 X-52.57476 Y53.59408
G01 X-52.59388 Y53.69022
G01 X-52.63943 Y53.84031
G01 X-52.67692 Y53.93086
G01 X-52.75086 Y54.06917
G01 X-52.80531 Y54.15067
G01 X-52.90478 Y54.27188
G01 X-52.97410 Y54.34120
G01 X-53.09530 Y54.44069
G01 X-53.17681 Y54.49515
G01 X-53.31512 Y54.56909
G01 X-53.40567 Y54.60658
G01 X-53.55576 Y54.65212
G01 X-53.65187 Y54.67122
G01 X-53.80795 Y54.68661
G01 X-53.90600 Y54.68661
G01 X-54.06208 Y54.67122
G01 X-54.15819 Y54.65212
G01 X-54.30828 Y54.60658
G01 X-54.39883 Y54.56909
G01 X-54.53714 Y54.49515
G01 X-54.61864 Y54.44069
G01 X-54.68161 Y54.38903
G01 X-56.53076 Y54.38903
G01 X-56.63078 Y54.48903
G01 X-56.63876 Y54.57010
G01 X-56.65788 Y54.66622
G01 X-56.70343 Y54.81631
G01 X-56.74092 Y54.90686
G01 X-56.81486 Y55.04516
G01 X-56.86931 Y55.12667
G01 X-56.96880 Y55.24790
G01 X-57.03810 Y55.31720
G01 X-57.15933 Y55.41669
G01 X-57.24084 Y55.47114
G01 X-57.37914 Y55.54508
G01 X-57.46969 Y55.58257
G01 X-57.61978 Y55.62812
G01 X-57.71589 Y55.64724
G01 X-57.87198 Y55.66261
G01 X-57.97000 Y55.66261
G01 X-58.12608 Y55.64724
G01 X-58.16733 Y55.63901
G01 X-58.22219 Y55.62812
G01 X-58.37228 Y55.58257
G01 X-58.46283 Y55.54508
G01 X-58.60114 Y55.47114
G01 X-58.68264 Y55.41669
G01 X-58.80388 Y55.31720
G01 X-58.87317 Y55.24790
G01 X-58.97266 Y55.12667
G01 X-59.02712 Y55.04516
G01 X-59.10106 Y54.90686
G01 X-59.13855 Y54.81631
G01 X-59.18409 Y54.66622
G01 X-59.20322 Y54.57010
G01 X-59.21858 Y54.41402
G01 X-59.21858 Y54.31600
G01 X-59.20322 Y54.15992
G01 X-59.18409 Y54.06381
G01 X-59.13855 Y53.91372
G01 X-59.10106 Y53.82317
G01 X-59.02712 Y53.68486
G01 X-58.97266 Y53.60336
G01 X-58.87317 Y53.48212
G01 X-58.80388 Y53.41283
G01 X-58.68264 Y53.31334
G01 X-58.60114 Y53.25888
G01 X-58.46283 Y53.18494
G01 X-58.37228 Y53.14745
G01 X-58.22219 Y53.10191
G01 X-58.12608 Y53.08278
G01 X-58.04498 Y53.07481
G01 X-57.65206 Y52.68189
G01 X-57.61572 Y52.64895
G01 X-57.53995 Y52.58677
G01 X-57.45844 Y52.53231
G01 X-57.37200 Y52.48611
G01 X-57.28145 Y52.44860
G01 X-57.18765 Y52.42015
G01 X-57.09151 Y52.40102
G01 X-56.99398 Y52.39142
G01 X-56.94498 Y52.38901
G01 X-56.27119 Y52.38901
G01 X-59.89809 Y48.76212
G01 X-59.93105 Y48.72577
G01 X-59.99323 Y48.65000
G01 X-60.04769 Y48.56849
G01 X-60.09389 Y48.48206
G01 X-60.13141 Y48.39150
G01 X-60.15986 Y48.29770
G01 X-60.17898 Y48.20156
G01 X-60.18859 Y48.10403
G01 X-60.19100 Y48.05501
G01 X-60.19100 Y45.17564
G01 X-60.24266 Y45.11267
G01 X-60.29712 Y45.03116
G01 X-60.37106 Y44.89286
G01 X-60.40855 Y44.80231
G01 X-60.45409 Y44.65222
G01 X-60.46097 Y44.61750
G01 X-60.46097 Y43.28443
G01 X-60.45409 Y43.24981
G01 X-60.40855 Y43.09972
G01 X-60.37106 Y43.00917
G01 X-60.29712 Y42.87087
G01 X-60.24266 Y42.78936
G01 X-60.21096 Y42.75075
G01 X-60.14317 Y42.66812
G01 X-60.07388 Y42.59883
G01 X-59.95264 Y42.49934
G01 X-59.87114 Y42.44488
G01 X-59.73283 Y42.37094
G01 X-59.64228 Y42.33343
G01 X-59.49219 Y42.28791
G01 X-59.39608 Y42.26878
G01 X-59.24000 Y42.25342
G01 X-59.14198 Y42.25342
G01 X-58.98590 Y42.26878
G01 X-58.88978 Y42.28791
G01 X-58.73969 Y42.33343
G01 X-58.64914 Y42.37094
G01 X-58.51084 Y42.44488
G01 X-58.42933 Y42.49934
G01 X-58.30810 Y42.59883
G01 X-58.23880 Y42.66812
G01 X-58.13931 Y42.78936
G01 X-58.08486 Y42.87087
G01 X-58.01092 Y43.00917
G01 X-57.97343 Y43.09972
G01 X-57.92788 Y43.24981
G01 X-57.92097 Y43.28443
G04 P0 ( dwell for no time -- G64 should not smooth over this point )
G00 Z3.50000 ( retract )

G00 X-63.00097 Y44.61750 ( rapid move to begin. )
G01 F200.00000
( Mill infeed pass 1/1 )
G01 Z-0.20000
G04 P0 ( dwell for no time -- G64 should not smooth over this point )
G01 F400.00000
G01 X-63.00097 Y44.61750
G01 X-63.00788 Y44.65222
G01 X-63.05343 Y44.80231
G01 X-63.09092 Y44.89286
G01 X-63.16486 Y45.03116
G01 X-63.21931 Y45.11267
G01 X-63.31880 Y45.23390
G01 X-63.38810 Y45.30319
G01 X-63.41296 Y45.32362
G01 X-63.41296 Y47.87398
G01 X-63.31974 Y47.98759
G01 X-63.26529 Y48.06908
G01 X-63.22297 Y48.14822
G04 P0 ( dwell for no time -- G64 should not smooth over this point )
G00 Z3.50000 ( retract )

G00 X-63.22297 Y49.40578 ( rapid move to begin. )
G01 F200.00000
( Mill infeed pass 1/1 )
G01 Z-0.20000
G04 P0 ( dwell for no time -- G64 should not smooth over this point )
G01 F400.00000
G01 X-63.22297 Y49.40578
G01 X-63.26529 Y49.48495
G01 X-63.31974 Y49.56643
G01 X-63.42543 Y49.69526
G01 X-63.49475 Y49.76455
G01 X-63.60438 Y49.85452
G01 X-63.62355 Y49.87027
G01 X-63.70506 Y49.92472
G01 X-63.85200 Y50.00326
G01 X-63.94255 Y50.04078
G01 X-64.10201 Y50.08914
G01 X-64.19815 Y50.10826
G01 X-64.36399 Y50.12460
G01 X-64.46201 Y50.12460
G01 X-64.62782 Y50.10826
G01 X-64.72396 Y50.08914
G01 X-64.88342 Y50.04078
G01 X-64.97397 Y50.00326
G01 X-65.12091 Y49.92472
G01 X-65.20242 Y49.87027
G01 X-65.33122 Y49.76455
G01 X-65.40054 Y49.69526
G01 X-65.50625 Y49.56643
G01 X-65.56069 Y49.48495
G01 X-65.63925 Y49.33798
G01 X-65.67676 Y49.24743
G01 X-65.68299 Y49.22683
G04 P0 ( dwell for no time -- G64 should not smooth over this point )
G00 Z3.50000 ( retract )

G00 X-65.68299 Y48.32709 ( rapid move to begin. )
G01 F200.00000
( Mill infeed pass 1/1 )
G01 Z-0.20000
G04 P0 ( dwell for no time -- G64 should not smooth over this point )
G01 F400.00000
G01 X-65.68299 Y48.32709
G01 X-65.68921 Y48.30659
G01 X-65.72672 Y48.21604
G01 X-65.80529 Y48.06908
G01 X-65.85974 Y47.98759
G01 X-65.96543 Y47.85876
G01 X-66.03475 Y47.78947
G01 X-66.16355 Y47.68376
G01 X-66.24506 Y47.62930
G01 X-66.39200 Y47.55076
G01 X-66.48255 Y47.51325
G01 X-66.64201 Y47.46489
G01 X-66.73815 Y47.44576
G01 X-66.90399 Y47.42943
G01 X-67.00201 Y47.42943
G01 X-67.16782 Y47.44576
G01 X-67.26396 Y47.46489
G01 X-67.42342 Y47.51325
G01 X-67.51397 Y47.55076
G01 X-67.66091 Y47.62930
G01 X-67.74242 Y47.68376
G01 X-67.85606 Y47.77700
G01 X-68.77208 Y47.77700
G01 X-69.83109 Y46.71803
G01 X-70.12783 Y46.42128
G04 P0 ( dwell for no time -- G64 should not smooth over this point )
G00 Z3.50000 ( retract )

G00 X-71.82123 Y44.72786 ( rapid move to begin. )
G01 F200.00000
( Mill infeed pass 1/1 )
G01 Z-0.20000
G04 P0 ( dwell for no time -- G64 should not smooth over this point )
G01 F400.00000
G01 X-71.82123 Y44.72786
G01 X-72.34497 Y44.20414
G01 X-72.34497 Y39.83120
G04 P0 ( dwell for no time -- G64 should not smooth over this point )
G00 Z3.50000 ( retract )

G00 X-71.14498 Y37.98319 ( rapid move to begin. )
G01 F200.00000
( Mill infeed pass 1/1 )
G01 Z-0.20000
G04 P0 ( dwell for no time -- G64 should not smooth over this point )
G01 F400.00000
G01 X-71.14498 Y37.98319
G01 X-67.26409 Y41.86411
G01 X-67.22774 Y41.89708
G01 X-67.15197 Y41.95926
G01 X-67.07046 Y42.01372
G01 X-66.98402 Y42.05992
G01 X-66.89347 Y42.09744
G01 X-66.79967 Y42.12588
G01 X-66.70353 Y42.14501
G01 X-66.60600 Y42.15461
G01 X-66.55700 Y42.15702
G01 X-51.94474 Y42.15702
G01 X-52.21131 Y42.42357
G01 X-52.25111 Y42.44488
G01 X-52.33262 Y42.49934
G01 X-52.45388 Y42.59883
G01 X-52.52314 Y42.66812
G01 X-52.59094 Y42.75075
G01 X-52.62266 Y42.78936
G01 X-52.67712 Y42.87087
G01 X-52.75103 Y43.00917
G01 X-52.78855 Y43.09972
G01 X-52.83409 Y43.24981
G01 X-52.84097 Y43.28443
G01 X-52.84097 Y44.61750
G01 X-52.84788 Y44.65222
G01 X-52.89340 Y44.80231
G01 X-52.93092 Y44.89286
G01 X-53.00483 Y45.03116
G01 X-53.05931 Y45.11267
G01 X-53.15880 Y45.23390
G01 X-53.22810 Y45.30319
G01 X-53.34933 Y45.40269
G01 X-53.43084 Y45.45714
G01 X-53.56914 Y45.53108
G01 X-53.65969 Y45.56860
G01 X-53.80978 Y45.61412
G01 X-53.90590 Y45.63324
G01 X-54.06198 Y45.64861
G01 X-54.16000 Y45.64861
G01 X-54.31608 Y45.63324
G01 X-54.41219 Y45.61412
G01 X-54.56228 Y45.56860
G01 X-54.65283 Y45.53108
G01 X-54.79114 Y45.45714
G01 X-54.87264 Y45.40269
G01 X-54.99388 Y45.30319
G01 X-55.06317 Y45.23390
G01 X-55.16266 Y45.11267
G01 X-55.21712 Y45.03116
G01 X-55.29106 Y44.89286
G01 X-55.32855 Y44.80231
G01 X-55.37409 Y44.65222
G01 X-55.38097 Y44.61750
G01 X-55.38097 Y43.28443
G01 X-55.38788 Y43.24981
G01 X-55.43343 Y43.09972
G01 X-55.47092 Y43.00917
G01 X-55.54486 Y42.87087
G01 X-55.59931 Y42.78936
G01 X-55.69880 Y42.66812
G01 X-55.76810 Y42.59883
G01 X-55.88933 Y42.49934
G01 X-55.97084 Y42.44488
G01 X-56.10914 Y42.37094
G01 X-56.19969 Y42.33343
G01 X-56.34978 Y42.28791
G01 X-56.44590 Y42.26878
G01 X-56.60198 Y42.25342
G01 X-56.70000 Y42.25342
G01 X-56.85608 Y42.26878
G01 X-56.95219 Y42.28791
G01 X-57.10228 Y42.33343
G01 X-57.19283 Y42.37094
G01 X-57.33114 Y42.44488
G01 X-57.41264 Y42.49934
G01 X-57.53388 Y42.59883
G01 X-57.60317 Y42.66812
G01 X-57.67096 Y42.75075
G01 X-57.70266 Y42.78936
G01 X-57.75712 Y42.87087
G01 X-57.83106 Y43.00917
G01 X-57.86855 Y43.09972
G01 X-57.91409 Y43.24981
G01 X-57.92097 Y43.28443
G01 X-57.92097 Y44.61750
G01 X-57.91409 Y44.65222
G01 X-57.86855 Y44.80231
G01 X-57.83106 Y44.89286
G01 X-57.75712 Y45.03116
G01 X-57.70266 Y45.11267
G01 X-57.65100 Y45.17564
G01 X-57.65100 Y46.49100
G01 X-57.64858 Y46.54002
G01 X-57.63898 Y46.63756
G01 X-57.61986 Y46.73370
G01 X-57.59141 Y46.82750
G01 X-57.55389 Y46.91805
G01 X-57.50769 Y47.00449
G01 X-57.45323 Y47.08600
G01 X-57.39105 Y47.16176
G01 X-57.35809 Y47.19811
G01 X-51.08319 Y53.47303
G01 X-51.07522 Y53.55411
G01 X-51.05609 Y53.65022
G01 X-51.01055 Y53.80031
G01 X-50.97306 Y53.89086
G01 X-50.89912 Y54.02916
G01 X-50.84466 Y54.11067
G01 X-50.74517 Y54.23190
G01 X-50.67588 Y54.30120
G01 X-50.55464 Y54.40069
G01 X-50.47314 Y54.45514
G01 X-50.33483 Y54.52908
G01 X-50.24428 Y54.56657
G01 X-50.09419 Y54.61212
G01 X-49.99808 Y54.63124
G01 X-49.91700 Y54.63922
G01 X-49.48409 Y55.07211
G01 X-49.44774 Y55.10508
G01 X-49.37197 Y55.16726
G01 X-49.29046 Y55.22172
G01 X-49.20402 Y55.26792
G01 X-49.11347 Y55.30544
G01 X-49.01967 Y55.33388
G01 X-48.92353 Y55.35301
G01 X-48.82600 Y55.36261
G01 X-48.77700 Y55.36502
G01 X-46.04561 Y55.36502
G01 X-45.98264 Y55.41669
G01 X-45.90114 Y55.47114
G01 X-45.76283 Y55.54508
G01 X-45.67228 Y55.58257
G01 X-45.52219 Y55.62812
G01 X-45.48765 Y55.63497
G01 X-45.42608 Y55.64724
G01 X-45.27000 Y55.66261
G01 X-45.17198 Y55.66261
G01 X-45.01589 Y55.64724
G01 X-44.91978 Y55.62812
G01 X-44.81998 Y55.59784
G01 X-44.77353 Y55.57000
G01 X-44.69415 Y55.51702
G01 X-44.56682 Y55.42258
G01 X-44.49969 Y55.36754
G01 X-44.38336 Y55.26208
G01 X-44.32392 Y55.20264
G01 X-44.21846 Y55.08631
G01 X-44.16342 Y55.01918
G01 X-44.06898 Y54.89185
G01 X-44.01600 Y54.81247
G01 X-43.98808 Y54.76591
G01 X-40.41100 Y51.18883
G01 X-39.61700 Y50.39480
G01 X-39.61700 Y49.24014
G01 X-41.27298 Y49.24014
G04 P0 ( dwell for no time -- G64 should not smooth over this point )
G00 Z3.50000 ( retract )

G00 X-37.60097 Y44.61750 ( rapid move to begin. )
G01 F200.00000
( Mill infeed pass 1/1 )
G01 Z-0.20000
G04 P0 ( dwell for no time -- G64 should not smooth over this point )
G01 F400.00000
G01 X-37.60097 Y44.61750
G01 X-37.60788 Y44.65222
G01 X-37.65343 Y44.80231
G01 X-37.69092 Y44.89286
G01 X-37.76486 Y45.03116
G01 X-37.81931 Y45.11267
G01 X-37.85099 Y45.15125
G01 X-37.91880 Y45.23390
G01 X-37.98810 Y45.30319
G01 X-38.10933 Y45.40269
G01 X-38.19084 Y45.45714
G01 X-38.32914 Y45.53108
G01 X-38.41969 Y45.56860
G01 X-38.56978 Y45.61412
G01 X-38.66589 Y45.63324
G01 X-38.82198 Y45.64861
G01 X-38.92000 Y45.64861
G01 X-39.07608 Y45.63324
G01 X-39.17219 Y45.61412
G01 X-39.32228 Y45.56860
G01 X-39.41283 Y45.53108
G01 X-39.55114 Y45.45714
G01 X-39.63264 Y45.40269
G01 X-39.75388 Y45.30319
G01 X-39.82317 Y45.23390
G01 X-39.92266 Y45.11267
G01 X-39.97712 Y45.03116
G01 X-40.05106 Y44.89286
G01 X-40.08855 Y44.80231
G01 X-40.13409 Y44.65222
G01 X-40.14097 Y44.61750
G01 X-40.14097 Y43.28443
G01 X-40.13409 Y43.24981
G01 X-40.08855 Y43.09972
G01 X-40.05106 Y43.00917
G01 X-39.97712 Y42.87087
G01 X-39.92266 Y42.78936
G01 X-39.82317 Y42.66812
G01 X-39.75388 Y42.59883
G01 X-39.63264 Y42.49934
G01 X-39.55114 Y42.44488
G01 X-39.48027 Y42.40701
G04 P0 ( dwell for no time -- G64 should not smooth over this point )
G00 Z3.50000 ( retract )

G00 X-40.14097 Y43.28443 ( rapid move to begin. )
G01 F200.00000
( Mill infeed pass 1/1 )
G01 Z-0.20000
G04 P0 ( dwell for no time -- G64 should not smooth over this point )
G01 F400.00000
G01 X-40.14097 Y43.28443
G01 X-40.14788 Y43.24981
G01 X-40.19343 Y43.09972
G01 X-40.23092 Y43.00917
G01 X-40.30486 Y42.87087
G01 X-40.35931 Y42.78936
G01 X-40.45880 Y42.66812
G01 X-40.52810 Y42.59883
G01 X-40.64933 Y42.49934
G01 X-40.73084 Y42.44488
G01 X-40.80165 Y42.40701
G04 P0 ( dwell for no time -- G64 should not smooth over this point )
G00 Z3.50000 ( retract )

G00 X-42.68097 Y44.61750 ( rapid move to begin. )
G01 F200.00000
( Mill infeed pass 1/1 )
G01 Z-0.20000
G04 P0 ( dwell for no time -- G64 should not smooth over this point )
G01 F400.00000
G01 X-42.68097 Y44.61750
G01 X-42.68788 Y44.65222
G01 X-42.73343 Y44.80231
G01 X-42.77092 Y44.89286
G01 X-42.84486 Y45.03116
G01 X-42.89931 Y45.11267
G01 X-42.93099 Y45.15125
G01 X-42.99880 Y45.23390
G01 X-43.06810 Y45.30319
G01 X-43.18933 Y45.40269
G01 X-43.27084 Y45.45714
G01 X-43.40914 Y45.53108
G01 X-43.49969 Y45.56860
G01 X-43.64978 Y45.61412
G01 X-43.74589 Y45.63324
G01 X-43.90198 Y45.64861
G01 X-44.00000 Y45.64861
G01 X-44.15608 Y45.63324
G01 X-44.25219 Y45.61412
G01 X-44.40228 Y45.56860
G01 X-44.49283 Y45.53108
G01 X-44.63114 Y45.45714
G01 X-44.71264 Y45.40269
G01 X-44.83388 Y45.30319
G01 X-44.90317 Y45.23390
G01 X-45.00266 Y45.11267
G01 X-45.05712 Y45.03116
G01 X-45.13106 Y44.89286
G01 X-45.16855 Y44.80231
G01 X-45.21409 Y44.65222
G01 X-45.22097 Y44.61750
G01 X-45.22097 Y43.28443
G01 X-45.21409 Y43.24981
G01 X-45.16855 Y43.09972
G01 X-45.13106 Y43.00917
G01 X-45.05712 Y42.87087
G01 X-45.00266 Y42.78936
G01 X-44.90317 Y42.66812
G01 X-44.83388 Y42.59883
G01 X-44.71264 Y42.49934
G01 X-44.63114 Y42.44488
G01 X-44.56027 Y42.40701
G04 P0 ( dwell for no time -- G64 should not smooth over this point )
G00 Z3.50000 ( retract )

G00 X-45.88165 Y42.40701 ( rapid move to begin. )
G01 F200.00000
( Mill infeed pass 1/1 )
G01 Z-0.20000
G04 P0 ( dwell for no time -- G64 should not smooth over this point )
G01 F400.00000
G01 X-45.88165 Y42.40701
G01 X-45.81084 Y42.44488
G01 X-45.72933 Y42.49934
G01 X-45.60810 Y42.59883
G01 X-45.53880 Y42.66812
G01 X-45.43931 Y42.78936
G01 X-45.38486 Y42.87087
G01 X-45.31092 Y43.00917
G01 X-45.27343 Y43.09972
G01 X-45.22788 Y43.24981
G01 X-45.22097 Y43.28443
G04 P0 ( dwell for no time -- G64 should not smooth over this point )
G00 Z3.50000 ( retract )

G00 X-43.34165 Y42.40701 ( rapid move to begin. )
G01 F200.00000
( Mill infeed pass 1/1 )
G01 Z-0.20000
G04 P0 ( dwell for no time -- G64 should not smooth over this point )
G01 F400.00000
G01 X-43.34165 Y42.40701
G01 X-43.27084 Y42.44488
G01 X-43.18933 Y42.49934
G01 X-43.06810 Y42.59883
G01 X-42.99880 Y42.66812
G01 X-42.89931 Y42.78936
G01 X-42.84486 Y42.87087
G01 X-42.77092 Y43.00917
G01 X-42.73343 Y43.09972
G01 X-42.68788 Y43.24981
G01 X-42.68097 Y43.28443
G04 P0 ( dwell for no time -- G64 should not smooth over this point )
G00 Z3.50000 ( retract )

G00 X-42.02027 Y42.40701 ( rapid move to begin. )
G01 F200.00000
( Mill infeed pass 1/1 )
G01 Z-0.20000
G04 P0 ( dwell for no time -- G64 should not smooth over this point )
G01 F400.00000
G01 X-42.02027 Y42.40701
G01 X-42.09114 Y42.44488
G01 X-42.17264 Y42.49934
G01 X-42.29388 Y42.59883
G01 X-42.36317 Y42.66812
G01 X-42.46266 Y42.78936
G01 X-42.51712 Y42.87087
G01 X-42.59106 Y43.00917
G01 X-42.62855 Y43.09972
G01 X-42.67409 Y43.24981
G01 X-42.68097 Y43.28443
G01 X-42.68097 Y44.61750
G01 X-42.67409 Y44.65222
G01 X-42.62855 Y44.80231
G01 X-42.59106 Y44.89286
G01 X-42.51712 Y45.03116
G01 X-42.46266 Y45.11267
G01 X-42.36317 Y45.23390
G01 X-42.29388 Y45.30319
G01 X-42.17264 Y45.40269
G01 X-42.09114 Y45.45714
G01 X-41.95283 Y45.53108
G01 X-41.86228 Y45.56860
G01 X-41.71219 Y45.61412
G01 X-41.61608 Y45.63324
G01 X-41.46000 Y45.64861
G01 X-41.36198 Y45.64861
G01 X-41.20589 Y45.63324
G01 X-41.10978 Y45.61412
G01 X-40.95969 Y45.56860
G01 X-40.86914 Y45.53108
G01 X-40.73084 Y45.45714
G01 X-40.64933 Y45.40269
G01 X-40.52810 Y45.30319
G01 X-40.45880 Y45.23390
G01 X-40.39099 Y45.15125
G01 X-40.35931 Y45.11267
G01 X-40.30486 Y45.03116
G01 X-40.23092 Y44.89286
G01 X-40.19343 Y44.80231
G01 X-40.14788 Y44.65222
G01 X-40.14097 Y44.61750
G04 P0 ( dwell for no time -- G64 should not smooth over this point )
G00 Z3.50000 ( retract )

G00 X-38.26165 Y42.40701 ( rapid move to begin. )
G01 F200.00000
( Mill infeed pass 1/1 )
G01 Z-0.20000
G04 P0 ( dwell for no time -- G64 should not smooth over this point )
G01 F400.00000
G01 X-38.26165 Y42.40701
G01 X-38.19084 Y42.44488
G01 X-38.10933 Y42.49934
G01 X-37.98810 Y42.59883
G01 X-37.91880 Y42.66812
G01 X-37.81931 Y42.78936
G01 X-37.76486 Y42.87087
G01 X-37.69092 Y43.00917
G01 X-37.65343 Y43.09972
G01 X-37.60788 Y43.24981
G01 X-37.60097 Y43.28443
G04 P0 ( dwell for no time -- G64 should not smooth over this point )
G00 Z3.50000 ( retract )

G00 X-36.94027 Y42.40701 ( rapid move to begin. )
G01 F200.00000
( Mill infeed pass 1/1 )
G01 Z-0.20000
G04 P0 ( dwell for no time -- G64 should not smooth over this point )
G01 F400.00000
G01 X-36.94027 Y42.40701
G01 X-37.01114 Y42.44488
G01 X-37.09264 Y42.49934
G01 X-37.21388 Y42.59883
G01 X-37.28317 Y42.66812
G01 X-37.38266 Y42.78936
G01 X-37.43712 Y42.87087
G01 X-37.51106 Y43.00917
G01 X-37.54855 Y43.09972
G01 X-37.59409 Y43.24981
G01 X-37.60097 Y43.28443
G01 X-37.60097 Y44.61750
G01 X-37.59409 Y44.65222
G01 X-37.54855 Y44.80231
G01 X-37.51106 Y44.89286
G01 X-37.43712 Y45.03116
G01 X-37.38266 Y45.11267
G01 X-37.28317 Y45.23390
G01 X-37.21388 Y45.30319
G01 X-37.09264 Y45.40269
G01 X-37.01114 Y45.45714
G01 X-36.87283 Y45.53108
G01 X-36.78228 Y45.56860
G01 X-36.63219 Y45.61412
G01 X-36.53608 Y45.63324
G01 X-36.38000 Y45.64861
G01 X-36.28198 Y45.64861
G01 X-36.12589 Y45.63324
G01 X-36.02978 Y45.61412
G01 X-35.87969 Y45.56860
G01 X-35.78914 Y45.53108
G01 X-35.65084 Y45.45714
G01 X-35.56933 Y45.40269
G01 X-35.44810 Y45.30319
G01 X-35.37880 Y45.23390
G01 X-35.31099 Y45.15125
G01 X-35.27931 Y45.11267
G01 X-35.22486 Y45.03116
G01 X-35.15092 Y44.89286
G01 X-35.11343 Y44.80231
G01 X-35.06788 Y44.65222
G01 X-35.06097 Y44.61750
G04 P0 ( dwell for no time -- G64 should not smooth over this point )
G00 Z3.50000 ( retract )

G00 X-35.06097 Y43.28443 ( rapid move to begin. )
G01 F200.00000
( Mill infeed pass 1/1 )
G01 Z-0.20000
G04 P0 ( dwell for no time -- G64 should not smooth over this point )
G01 F400.00000
G01 X-35.06097 Y43.28443
G01 X-35.06788 Y43.24981
G01 X-35.11343 Y43.09972
G01 X-35.15092 Y43.00917
G01 X-35.22486 Y42.87087
G01 X-35.27931 Y42.78936
G01 X-35.37880 Y42.66812
G01 X-35.44810 Y42.59883
G01 X-35.56933 Y42.49934
G01 X-35.65084 Y42.44488
G01 X-35.72165 Y42.40701
G04 P0 ( dwell for no time -- G64 should not smooth over this point )
G00 Z3.50000 ( retract )

G00 X-34.40027 Y42.40701 ( rapid move to begin. )
G01 F200.00000
( Mill infeed pass 1/1 )
G01 Z-0.20000
G04 P0 ( dwell for no time -- G64 should not smooth over this point )
G01 F400.00000
G01 X-34.40027 Y42.40701
G01 X-34.47114 Y42.44488
G01 X-34.55264 Y42.49934
G01 X-34.67388 Y42.59883
G01 X-34.74317 Y42.66812
G01 X-34.84266 Y42.78936
G01 X-34.89712 Y42.87087
G01 X-34.97106 Y43.00917
G01 X-35.00855 Y43.09972
G01 X-35.05409 Y43.24981
G01 X-35.06097 Y43.28443
G01 X-35.06097 Y44.61750
G01 X-35.05409 Y44.65222
G01 X-35.00855 Y44.80231
G01 X-34.97106 Y44.89286
G01 X-34.89712 Y45.03116
G01 X-34.84266 Y45.11267
G01 X-34.74317 Y45.23390
G01 X-34.67388 Y45.30319
G01 X-34.55264 Y45.40269
G01 X-34.47114 Y45.45714
G01 X-34.33283 Y45.53108
G01 X-34.24228 Y45.56860
G01 X-34.09219 Y45.61412
G01 X-33.99608 Y45.63324
G01 X-33.84000 Y45.64861
G01 X-33.74198 Y45.64861
G01 X-33.58589 Y45.63324
G01 X-33.48978 Y45.61412
G01 X-33.33969 Y45.56860
G01 X-33.24914 Y45.53108
G01 X-33.11084 Y45.45714
G01 X-33.02933 Y45.40269
G01 X-32.90810 Y45.30319
G01 X-32.83880 Y45.23390
G01 X-32.73931 Y45.11267
G01 X-32.68486 Y45.03116
G01 X-32.61092 Y44.89286
G01 X-32.57343 Y44.80231
G01 X-32.52788 Y44.65222
G01 X-32.50876 Y44.55610
G01 X-32.49339 Y44.40002
G01 X-32.49098 Y44.35102
G01 X-32.49098 Y43.55103
G01 X-32.49339 Y43.50200
G01 X-32.50876 Y43.34592
G01 X-32.52788 Y43.24981
G01 X-32.57343 Y43.09972
G01 X-32.61092 Y43.00917
G01 X-32.68486 Y42.87087
G01 X-32.73931 Y42.78936
G01 X-32.83880 Y42.66812
G01 X-32.90810 Y42.59883
G01 X-33.02933 Y42.49934
G01 X-33.11084 Y42.44488
G01 X-33.18165 Y42.40701
G04 P0 ( dwell for no time -- G64 should not smooth over this point )
G00 Z3.50000 ( retract )

G00 X-37.60097 Y36.99747 ( rapid move to begin. )
G01 F200.00000
( Mill infeed pass 1/1 )
G01 Z-0.20000
G04 P0 ( dwell for no time -- G64 should not smooth over this point )
G01 F400.00000
G01 X-37.60097 Y36.99747
G01 X-37.60788 Y37.03222
G01 X-37.65343 Y37.18231
G01 X-37.69092 Y37.27286
G01 X-37.76486 Y37.41116
G01 X-37.81931 Y37.49267
G01 X-37.85099 Y37.53125
G01 X-37.91880 Y37.61390
G01 X-37.98810 Y37.68319
G01 X-38.10933 Y37.78269
G01 X-38.19084 Y37.83714
G01 X-38.32914 Y37.91108
G01 X-38.41969 Y37.94860
G01 X-38.56978 Y37.99412
G01 X-38.66589 Y38.01324
G01 X-38.82198 Y38.02861
G01 X-38.92000 Y38.02861
G01 X-39.07608 Y38.01324
G01 X-39.17219 Y37.99412
G01 X-39.32228 Y37.94860
G01 X-39.41283 Y37.91108
G01 X-39.55114 Y37.83714
G01 X-39.63264 Y37.78269
G01 X-39.75388 Y37.68319
G01 X-39.82317 Y37.61390
G01 X-39.92266 Y37.49267
G01 X-39.97712 Y37.41116
G01 X-40.05106 Y37.27286
G01 X-40.08855 Y37.18231
G01 X-40.13409 Y37.03222
G01 X-40.14097 Y36.99747
G04 P0 ( dwell for no time -- G64 should not smooth over this point )
G00 Z3.50000 ( retract )

G00 X-42.68097 Y35.66443 ( rapid move to begin. )
G01 F200.00000
( Mill infeed pass 1/1 )
G01 Z-0.20000
G04 P0 ( dwell for no time -- G64 should not smooth over this point )
G01 F400.00000
G01 X-42.68097 Y35.66443
G01 X-42.68788 Y35.62981
G01 X-42.73343 Y35.47972
G01 X-42.77092 Y35.38917
G01 X-42.84486 Y35.25087
G01 X-42.89931 Y35.16936
G01 X-42.95098 Y35.10639
G01 X-42.95098 Y34.54523
G01 X-42.33940 Y33.93362
G04 P0 ( dwell for no time -- G64 should not smooth over this point )
G00 Z3.50000 ( retract )

G00 X-40.14097 Y35.66443 ( rapid move to begin. )
G01 F200.00000
( Mill infeed pass 1/1 )
G01 Z-0.20000
G04 P0 ( dwell for no time -- G64 should not smooth over this point )
G01 F400.00000
G01 X-40.14097 Y35.66443
G01 X-40.14788 Y35.62981
G01 X-40.19343 Y35.47972
G01 X-40.23092 Y35.38917
G01 X-40.30486 Y35.25087
G01 X-40.35931 Y35.16936
G01 X-40.41098 Y35.10639
G01 X-40.41098 Y34.71322
G01 X-35.64256 Y29.94478
G04 P0 ( dwell for no time -- G64 should not smooth over this point )
G00 Z3.50000 ( retract )

G00 X-37.60097 Y35.66443 ( rapid move to begin. )
G01 F200.00000
( Mill infeed pass 1/1 )
G01 Z-0.20000
G04 P0 ( dwell for no time -- G64 should not smooth over this point )
G01 F400.00000
G01 X-37.60097 Y35.66443
G01 X-37.59409 Y35.62981
G01 X-37.54855 Y35.47972
G01 X-37.51106 Y35.38917
G01 X-37.43712 Y35.25087
G01 X-37.38266 Y35.16936
G01 X-37.28317 Y35.04812
G01 X-37.21388 Y34.97883
G01 X-37.09264 Y34.87934
G01 X-37.01114 Y34.82488
G01 X-36.87283 Y34.75094
G01 X-36.78228 Y34.71343
G01 X-36.63219 Y34.66791
G01 X-36.53608 Y34.64878
G01 X-36.38000 Y34.63342
G01 X-36.28198 Y34.63342
G01 X-36.12589 Y34.64878
G01 X-36.02978 Y34.66791
G01 X-35.87969 Y34.71343
G01 X-35.78914 Y34.75094
G01 X-35.65084 Y34.82488
G01 X-35.56933 Y34.87934
G01 X-35.44810 Y34.97883
G01 X-35.37880 Y35.04812
G01 X-35.27931 Y35.16936
G01 X-35.22486 Y35.25087
G01 X-35.15092 Y35.38917
G01 X-35.11343 Y35.47972
G01 X-35.06788 Y35.62981
G01 X-35.06097 Y35.66443
G04 P0 ( dwell for no time -- G64 should not smooth over this point )
G00 Z3.50000 ( retract )

G00 X-35.06097 Y36.99747 ( rapid move to begin. )
G01 F200.00000
( Mill infeed pass 1/1 )
G01 Z-0.20000
G04 P0 ( dwell for no time -- G64 should not smooth over this point )
G01 F400.00000
G01 X-35.06097 Y36.99747
G01 X-35.06788 Y37.03222
G01 X-35.11343 Y37.18231
G01 X-35.15092 Y37.27286
G01 X-35.22486 Y37.41116
G01 X-35.27931 Y37.49267
G01 X-35.31099 Y37.53125
G01 X-35.37880 Y37.61390
G01 X-35.44810 Y37.68319
G01 X-35.56933 Y37.78269
G01 X-35.65084 Y37.83714
G01 X-35.78914 Y37.91108
G01 X-35.87969 Y37.94860
G01 X-36.02978 Y37.99412
G01 X-36.12589 Y38.01324
G01 X-36.28198 Y38.02861
G01 X-36.38000 Y38.02861
G01 X-36.53608 Y38.01324
G01 X-36.63219 Y37.99412
G01 X-36.78228 Y37.94860
G01 X-36.87283 Y37.91108
G01 X-37.01114 Y37.83714
G01 X-37.09264 Y37.78269
G01 X-37.21388 Y37.68319
G01 X-37.28317 Y37.61390
G01 X-37.38266 Y37.49267
G01 X-37.43712 Y37.41116
G01 X-37.51106 Y37.27286
G01 X-37.54855 Y37.18231
G01 X-37.59409 Y37.03222
G01 X-37.60097 Y36.99747
G01 X-37.60097 Y35.66443
G01 X-37.60788 Y35.62981
G01 X-37.65343 Y35.47972
G01 X-37.69092 Y35.38917
G01 X-37.76486 Y35.25087
G01 X-37.81924 Y35.16948
G01 X-34.21632 Y31.56657
G01 X-34.09400 Y31.57861
G01 X-33.99598 Y31.57861
G01 X-33.78137 Y31.55748
G01 X-33.68523 Y31.53835
G01 X-33.47888 Y31.47574
G01 X-33.38833 Y31.43825
G01 X-33.19816 Y31.33660
G01 X-33.11666 Y31.28214
G01 X-32.94998 Y31.14534
G01 X-32.88066 Y31.07602
G01 X-32.74386 Y30.90934
G01 X-32.68940 Y30.82784
G01 X-32.58775 Y30.63767
G01 X-32.55026 Y30.54712
G01 X-32.48765 Y30.34077
G01 X-32.46852 Y30.24463
G01 X-32.44739 Y30.03002
G01 X-32.44739 Y29.93200
G01 X-32.46852 Y29.71740
G01 X-32.48765 Y29.62126
G01 X-32.55026 Y29.41491
G01 X-32.58775 Y29.32436
G01 X-32.68940 Y29.13419
G01 X-32.74386 Y29.05268
G01 X-32.88066 Y28.88601
G01 X-32.94998 Y28.81669
G01 X-33.11666 Y28.67989
G01 X-33.19816 Y28.62543
G01 X-33.38833 Y28.52378
G01 X-33.47888 Y28.48629
G01 X-33.55453 Y28.46332
G01 X-33.68523 Y28.42368
G01 X-33.78137 Y28.40455
G01 X-33.99598 Y28.38342
G01 X-34.08114 Y28.38342
G01 X-34.09354 Y28.38855
G01 X-34.30055 Y28.48646
G01 X-34.37380 Y28.52555
G01 X-34.56446 Y28.63983
G01 X-34.61983 Y28.67679
G01 X-34.79493 Y28.80666
G01 X-34.83938 Y28.84311
G01 X-34.99935 Y28.98809
G01 X-35.03791 Y29.02665
G01 X-35.18289 Y29.18662
G01 X-35.21934 Y29.23107
G01 X-35.34921 Y29.40617
G01 X-35.38617 Y29.46154
G01 X-35.50045 Y29.65220
G01 X-35.53954 Y29.72545
G01 X-35.63745 Y29.93246
G01 X-35.64256 Y29.94478
G01 X-35.64258 Y30.03002
G01 X-35.63054 Y30.15235
G01 X-39.57809 Y34.09991
G01 X-39.61105 Y34.13626
G01 X-39.67323 Y34.21203
G01 X-39.72769 Y34.29354
G01 X-39.77389 Y34.37998
G01 X-39.81141 Y34.47053
G01 X-39.83986 Y34.56433
G01 X-39.85898 Y34.66047
G01 X-39.86858 Y34.75800
G01 X-39.87100 Y34.80700
G01 X-39.87100 Y35.10639
G01 X-39.89096 Y35.13075
G01 X-39.92266 Y35.16936
G01 X-39.97712 Y35.25087
G01 X-40.05106 Y35.38917
G01 X-40.08855 Y35.47972
G01 X-40.13409 Y35.62981
G01 X-40.14097 Y35.66443
G01 X-40.14097 Y36.99747
G01 X-40.14788 Y37.03222
G01 X-40.19343 Y37.18231
G01 X-40.23092 Y37.27286
G01 X-40.30486 Y37.41116
G01 X-40.35931 Y37.49267
G01 X-40.39099 Y37.53125
G01 X-40.45880 Y37.61390
G01 X-40.52810 Y37.68319
G01 X-40.64933 Y37.78269
G01 X-40.73084 Y37.83714
G01 X-40.86914 Y37.91108
G01 X-40.95969 Y37.94860
G01 X-41.10978 Y37.99412
G01 X-41.20589 Y38.01324
G01 X-41.36198 Y38.02861
G01 X-41.46000 Y38.02861
G01 X-41.61608 Y38.01324
G01 X-41.71219 Y37.99412
G01 X-41.86228 Y37.94860
G01 X-41.95283 Y37.91108
G01 X-42.09114 Y37.83714
G01 X-42.17264 Y37.78269
G01 X-42.29388 Y37.68319
G01 X-42.36317 Y37.61390
G01 X-42.46266 Y37.49267
G01 X-42.51712 Y37.41116
G01 X-42.59106 Y37.27286
G01 X-42.62855 Y37.18231
G01 X-42.67409 Y37.03222
G01 X-42.68097 Y36.99747
G01 X-42.68097 Y35.66443
G01 X-42.67409 Y35.62981
G01 X-42.62855 Y35.47972
G01 X-42.59106 Y35.38917
G01 X-42.51712 Y35.25087
G01 X-42.46266 Y35.16936
G01 X-42.43096 Y35.13075
G01 X-42.41100 Y35.10639
G01 X-42.41100 Y34.29900
G01 X-42.40858 Y34.25000
G01 X-42.39898 Y34.15247
G01 X-42.37986 Y34.05633
G01 X-42.35141 Y33.96253
G01 X-42.33940 Y33.93362
G01 X-42.30234 Y33.87812
G01 X-42.24331 Y33.79854
G01 X-42.18489 Y33.72730
G01 X-42.11897 Y33.65460
G01 X-42.08799 Y33.62201
G01 X-34.72196 Y26.25601
G01 X-34.68940 Y26.22503
G01 X-34.61670 Y26.15911
G01 X-34.54546 Y26.10069
G01 X-34.46588 Y26.04166
G01 X-34.41020 Y26.00450
G01 X-34.38147 Y25.99259
G01 X-34.28767 Y25.96414
G01 X-34.19153 Y25.94502
G01 X-34.09400 Y25.93542
G01 X-34.04500 Y25.93300
G01 X-30.75230 Y25.93300
G01 X-30.63866 Y25.83976
G01 X-30.55717 Y25.78530
G01 X-30.41021 Y25.70676
G01 X-30.31966 Y25.66925
G01 X-30.29908 Y25.66303
G01 X-29.39931 Y25.66303
G01 X-29.37882 Y25.65678
G01 X-29.28827 Y25.61926
G01 X-29.14130 Y25.54072
G01 X-29.05982 Y25.48627
G01 X-28.93099 Y25.38055
G01 X-28.86170 Y25.31126
G01 X-28.75598 Y25.18243
G01 X-28.70153 Y25.10095
G01 X-28.62299 Y24.95398
G01 X-28.58547 Y24.86343
G01 X-28.57922 Y24.84286
G04 P0 ( dwell for no time -- G64 should not smooth over this point )
G00 Z3.50000 ( retract )

G00 X-29.39931 Y25.66303 ( rapid move to begin. )
G01 F200.00000
( Mill infeed pass 1/1 )
G01 Z-0.20000
G04 P0 ( dwell for no time -- G64 should not smooth over this point )
G01 F400.00000
G01 X-29.39931 Y25.66303
G01 X-29.37882 Y25.66925
G01 X-29.28827 Y25.70676
G01 X-29.14130 Y25.78530
G01 X-29.05982 Y25.83976
G01 X-28.93099 Y25.94547
G01 X-28.86170 Y26.01476
G01 X-28.75598 Y26.14359
G01 X-28.70153 Y26.22508
G01 X-28.62299 Y26.37204
G01 X-28.58547 Y26.46259
G01 X-28.57922 Y26.48309
G04 P0 ( dwell for no time -- G64 should not smooth over this point )
G00 Z3.50000 ( retract )

G00 X-28.57922 Y27.38286 ( rapid move to begin. )
G01 F200.00000
( Mill infeed pass 1/1 )
G01 Z-0.20000
G04 P0 ( dwell for no time -- G64 should not smooth over this point )
G01 F400.00000
G01 X-28.57922 Y27.38286
G01 X-28.58547 Y27.40343
G01 X-28.62299 Y27.49398
G01 X-28.70153 Y27.64095
G01 X-28.75598 Y27.72243
G01 X-28.82924 Y27.81169
G01 X-28.86170 Y27.85126
G01 X-28.93099 Y27.92055
G01 X-29.05982 Y28.02627
G01 X-29.14130 Y28.08072
G01 X-29.28827 Y28.15926
G01 X-29.37882 Y28.19678
G01 X-29.53828 Y28.24514
G01 X-29.63439 Y28.26426
G01 X-29.80023 Y28.28060
G01 X-29.89825 Y28.28060
G01 X-30.06408 Y28.26426
G01 X-30.16020 Y28.24514
G01 X-30.31966 Y28.19678
G01 X-30.41021 Y28.15926
G01 X-30.55717 Y28.08072
G01 X-30.63866 Y28.02627
G01 X-30.75230 Y27.93302
G01 X-33.63078 Y27.93302
G01 X-34.08114 Y28.38342
G04 P0 ( dwell for no time -- G64 should not smooth over this point )
G00 Z3.50000 ( retract )

G00 X-34.41020 Y26.00450 ( rapid move to begin. )
G01 F200.00000
( Mill infeed pass 1/1 )
G01 Z-0.20000
G04 P0 ( dwell for no time -- G64 should not smooth over this point )
G01 F400.00000
G01 X-34.41020 Y26.00450
G01 X-33.79877 Y25.39302
G01 X-30.75230 Y25.39302
G01 X-30.72791 Y25.41301
G01 X-30.63866 Y25.48627
G01 X-30.55717 Y25.54072
G01 X-30.41021 Y25.61926
G01 X-30.31966 Y25.65678
G01 X-30.29908 Y25.66303
G04 P0 ( dwell for no time -- G64 should not smooth over this point )
G00 Z3.50000 ( retract )

G00 X-28.57922 Y23.94309 ( rapid move to begin. )
G01 F200.00000
( Mill infeed pass 1/1 )
G01 Z-0.20000
G04 P0 ( dwell for no time -- G64 should not smooth over this point )
G01 F400.00000
G01 X-28.57922 Y23.94309
G01 X-28.57300 Y23.92259
G01 X-28.55921 Y23.88929
G01 X-28.55921 Y22.35673
G01 X-28.57300 Y22.32343
G01 X-28.57922 Y22.30286
G04 P0 ( dwell for no time -- G64 should not smooth over this point )
G00 Z3.50000 ( retract )

G00 X-28.57922 Y21.40309 ( rapid move to begin. )
G01 F200.00000
( Mill infeed pass 1/1 )
G01 Z-0.20000
G04 P0 ( dwell for no time -- G64 should not smooth over this point )
G01 F400.00000
G01 X-28.57922 Y21.40309
G01 X-28.57300 Y21.38259
G01 X-28.55921 Y21.34929
G01 X-28.55921 Y20.56301
G01 X-29.34557 Y20.56301
G01 X-29.37882 Y20.57678
G01 X-29.39931 Y20.58303
G01 X-30.29908 Y20.58303
G01 X-30.31966 Y20.58925
G01 X-30.41021 Y20.62676
G01 X-30.55717 Y20.70530
G01 X-30.63866 Y20.75976
G01 X-30.75230 Y20.85300
G01 X-34.83469 Y20.85300
G01 X-34.89958 Y20.77393
G01 X-34.91266 Y20.75801
G01 X-34.98198 Y20.68869
G01 X-35.14866 Y20.55189
G01 X-35.23016 Y20.49743
G01 X-35.42033 Y20.39578
G01 X-35.51088 Y20.35829
G01 X-35.65996 Y20.31305
G01 X-35.66011 Y20.31302
G01 X-35.71983 Y20.30418
G01 X-35.81513 Y20.29476
G01 X-36.03077 Y20.28417
G01 X-36.12323 Y20.28417
G01 X-36.33885 Y20.29476
G01 X-36.43412 Y20.30418
G01 X-36.49404 Y20.31307
G01 X-36.64309 Y20.35829
G01 X-36.73364 Y20.39578
G01 X-36.92381 Y20.49743
G01 X-37.00532 Y20.55189
G01 X-37.17199 Y20.68869
G01 X-37.24131 Y20.75801
G01 X-37.37811 Y20.92468
G01 X-37.43257 Y21.00619
G01 X-37.53422 Y21.19636
G01 X-37.57171 Y21.28691
G01 X-37.63432 Y21.49326
G01 X-37.65345 Y21.58940
G01 X-37.67458 Y21.80400
G01 X-37.67458 Y21.90202
G01 X-37.65345 Y22.11663
G01 X-37.63432 Y22.21277
G01 X-37.57171 Y22.41912
G01 X-37.53422 Y22.50967
G01 X-37.43257 Y22.69984
G01 X-37.37811 Y22.78134
G01 X-37.24131 Y22.94802
G01 X-37.17199 Y23.01734
G01 X-37.00532 Y23.15414
G01 X-36.92381 Y23.20860
G01 X-36.73364 Y23.31025
G01 X-36.64309 Y23.34774
G01 X-36.43674 Y23.41035
G01 X-36.34060 Y23.42948
G01 X-36.12600 Y23.45061
G01 X-36.02798 Y23.45061
G01 X-35.81337 Y23.42948
G01 X-35.71723 Y23.41035
G01 X-35.51088 Y23.34774
G01 X-35.42033 Y23.31025
G01 X-35.23016 Y23.20860
G01 X-35.14866 Y23.15414
G01 X-34.98198 Y23.01734
G01 X-34.91266 Y22.94802
G01 X-34.83469 Y22.85302
G01 X-30.75230 Y22.85302
G01 X-30.72791 Y22.87301
G01 X-30.63866 Y22.94627
G01 X-30.55717 Y23.00072
G01 X-30.41021 Y23.07926
G01 X-30.31966 Y23.11678
G01 X-30.29908 Y23.12303
G04 P0 ( dwell for no time -- G64 should not smooth over this point )
G00 Z3.50000 ( retract )

G00 X-29.39931 Y23.12303 ( rapid move to begin. )
G01 F200.00000
( Mill infeed pass 1/1 )
G01 Z-0.20000
G04 P0 ( dwell for no time -- G64 should not smooth over this point )
G01 F400.00000
G01 X-29.39931 Y23.12303
G01 X-29.37882 Y23.11678
G01 X-29.28827 Y23.07926
G01 X-29.14130 Y23.00072
G01 X-29.05982 Y22.94627
G01 X-28.93099 Y22.84055
G01 X-28.86170 Y22.77126
G01 X-28.75598 Y22.64243
G01 X-28.70153 Y22.56095
G01 X-28.62299 Y22.41398
G01 X-28.58547 Y22.32343
G01 X-28.57922 Y22.30286
G01 X-28.57922 Y21.40309
G01 X-28.58547 Y21.38259
G01 X-28.62299 Y21.29204
G01 X-28.70153 Y21.14508
G01 X-28.75598 Y21.06359
G01 X-28.86170 Y20.93476
G01 X-28.93099 Y20.86547
G01 X-29.05982 Y20.75976
G01 X-29.14130 Y20.70530
G01 X-29.28827 Y20.62676
G01 X-29.37882 Y20.58925
G01 X-29.39931 Y20.58303
G04 P0 ( dwell for no time -- G64 should not smooth over this point )
G00 Z3.50000 ( retract )

G00 X-30.29908 Y20.58303 ( rapid move to begin. )
G01 F200.00000
( Mill infeed pass 1/1 )
G01 Z-0.20000
G04 P0 ( dwell for no time -- G64 should not smooth over this point )
G01 F400.00000
G01 X-30.29908 Y20.58303
G01 X-30.31966 Y20.57678
G01 X-30.41021 Y20.53926
G01 X-30.55717 Y20.46072
G01 X-30.63866 Y20.40627
G01 X-30.72791 Y20.33301
G01 X-30.75230 Y20.31302
G01 X-35.66026 Y20.31302
G01 X-35.71983 Y20.30418
G04 P0 ( dwell for no time -- G64 should not smooth over this point )
G00 Z3.50000 ( retract )

G00 X-33.62808 Y18.31300 ( rapid move to begin. )
G01 F200.00000
( Mill infeed pass 1/1 )
G01 Z-0.20000
G04 P0 ( dwell for no time -- G64 should not smooth over this point )
G01 F400.00000
G01 X-33.62808 Y18.31300
G01 X-30.75230 Y18.31300
G01 X-30.63866 Y18.21976
G01 X-30.55717 Y18.16530
G01 X-30.47556 Y18.12171
G04 P0 ( dwell for no time -- G64 should not smooth over this point )
G00 Z3.50000 ( retract )

G00 X-33.10309 Y15.48301 ( rapid move to begin. )
G01 F200.00000
( Mill infeed pass 1/1 )
G01 Z-0.20000
G04 P0 ( dwell for no time -- G64 should not smooth over this point )
G01 F400.00000
G01 X-33.10309 Y15.48301
G01 X-30.73690 Y15.48301
G04 P0 ( dwell for no time -- G64 should not smooth over this point )
G00 Z3.50000 ( retract )

G00 X-28.96142 Y18.06304 ( rapid move to begin. )
G01 F200.00000
( Mill infeed pass 1/1 )
G01 Z-0.20000
G04 P0 ( dwell for no time -- G64 should not smooth over this point )
G01 F400.00000
G01 X-28.96142 Y18.06304
G01 X-28.91786 Y18.04496
G01 X-28.87465 Y18.02184
G01 X-28.79314 Y17.96741
G01 X-28.75527 Y17.93629
G01 X-28.68596 Y17.86698
G01 X-28.65487 Y17.82911
G01 X-28.60041 Y17.74760
G01 X-28.57729 Y17.70442
G01 X-28.53980 Y17.61382
G01 X-28.52558 Y17.56693
G01 X-28.50645 Y17.47079
G01 X-28.50165 Y17.42205
G01 X-28.50051 Y17.39944
G04 P0 ( dwell for no time -- G64 should not smooth over this point )
G00 Z3.50000 ( retract )

G00 X-27.75908 Y18.04303 ( rapid move to begin. )
G01 F200.00000
( Mill infeed pass 1/1 )
G01 Z-0.20000
G04 P0 ( dwell for no time -- G64 should not smooth over this point )
G01 F400.00000
G01 X-27.75908 Y18.04303
G01 X-27.77966 Y18.04925
G01 X-27.81291 Y18.06304
G01 X-28.96142 Y18.06304
G01 X-29.01130 Y18.07297
G01 X-29.06030 Y18.08024
G01 X-29.15405 Y18.08951
G01 X-29.20305 Y18.09192
G01 X-29.24923 Y18.09301
G01 X-29.34521 Y18.09301
G01 X-29.38976 Y18.08532
G01 X-29.55641 Y18.06060
G01 X-29.64133 Y18.05222
G01 X-29.80795 Y18.04407
G01 X-29.89047 Y18.04407
G01 X-30.05712 Y18.05222
G01 X-30.14204 Y18.06060
G01 X-30.30869 Y18.08532
G01 X-30.40119 Y18.10378
G01 X-30.44922 Y18.11582
G01 X-30.47556 Y18.12171
G01 X-30.49825 Y18.12060
G01 X-30.54701 Y18.11582
G01 X-30.64315 Y18.09670
G01 X-30.69004 Y18.08245
G01 X-30.78062 Y18.04496
G01 X-30.82382 Y18.02184
G01 X-30.90533 Y17.96741
G01 X-30.94320 Y17.93629
G01 X-31.01252 Y17.86698
G01 X-31.02479 Y17.85204
G01 X-31.04361 Y17.82911
G01 X-31.08110 Y17.77302
G01 X-32.80269 Y17.77302
G01 X-32.88066 Y17.86802
G01 X-32.94998 Y17.93734
G01 X-33.11666 Y18.07417
G01 X-33.19816 Y18.12860
G01 X-33.38833 Y18.23025
G01 X-33.47888 Y18.26776
G01 X-33.62808 Y18.31300
G01 X-33.68783 Y18.32187
G01 X-33.78313 Y18.33129
G01 X-33.99877 Y18.34188
G01 X-34.09123 Y18.34188
G01 X-34.30685 Y18.33129
G01 X-34.40212 Y18.32187
G01 X-34.46186 Y18.31300
G01 X-34.61109 Y18.26776
G01 X-34.70164 Y18.23025
G01 X-34.89181 Y18.12860
G01 X-34.97332 Y18.07417
G01 X-35.13999 Y17.93734
G01 X-35.20931 Y17.86802
G01 X-35.22247 Y17.85202
G01 X-35.34611 Y17.70134
G01 X-35.40057 Y17.61984
G01 X-35.50222 Y17.42967
G01 X-35.53971 Y17.33912
G01 X-35.60232 Y17.13277
G01 X-35.62145 Y17.03663
G01 X-35.64258 Y16.82202
G01 X-35.64258 Y16.72400
G01 X-35.62145 Y16.50940
G01 X-35.60232 Y16.41326
G01 X-35.53971 Y16.20691
G01 X-35.50222 Y16.11636
G01 X-35.40057 Y15.92619
G01 X-35.34611 Y15.84468
G01 X-35.20931 Y15.67801
G01 X-35.13999 Y15.60869
G01 X-34.98683 Y15.48301
G04 P0 ( dwell for no time -- G64 should not smooth over this point )
G00 Z3.50000 ( retract )

G00 X-34.46186 Y18.31300 ( rapid move to begin. )
G01 F200.00000
( Mill infeed pass 1/1 )
G01 Z-0.20000
G04 P0 ( dwell for no time -- G64 should not smooth over this point )
G01 F400.00000
G01 X-34.46186 Y18.31300
G01 X-37.72602 Y18.31300
G01 X-37.72660 Y18.30691
G01 X-37.74573 Y18.21079
G01 X-37.80263 Y18.02319
G01 X-37.84014 Y17.93264
G01 X-37.93255 Y17.75976
G01 X-37.98700 Y17.67826
G01 X-38.11139 Y17.52672
G01 X-38.12498 Y17.51311
G01 X-38.12498 Y14.64986
G04 P0 ( dwell for no time -- G64 should not smooth over this point )
G00 Z3.50000 ( retract )

G00 X-42.20739 Y7.07200 ( rapid move to begin. )
G01 F200.00000
( Mill infeed pass 1/1 )
G01 Z-0.20000
G04 P0 ( dwell for no time -- G64 should not smooth over this point )
G01 F400.00000
G01 X-42.20739 Y7.07200
G01 X-42.20739 Y7.17002
G01 X-42.23622 Y7.46266
G01 X-42.25535 Y7.55879
G01 X-42.34069 Y7.84018
G01 X-42.37821 Y7.93073
G01 X-42.51681 Y8.19006
G01 X-42.57127 Y8.27157
G01 X-42.75781 Y8.49887
G01 X-42.82713 Y8.56819
G01 X-43.05443 Y8.75473
G01 X-43.13594 Y8.80919
G01 X-43.39527 Y8.94779
G01 X-43.48582 Y8.98531
G01 X-43.76721 Y9.07065
G01 X-43.86334 Y9.08978
G01 X-44.15598 Y9.11861
G01 X-44.25400 Y9.11861
G01 X-44.54663 Y9.08978
G01 X-44.64277 Y9.07065
G01 X-44.71770 Y9.04792
G01 X-48.28498 Y12.61522
G01 X-48.28498 Y12.90039
G01 X-48.23331 Y12.96336
G01 X-48.17886 Y13.04486
G01 X-48.10492 Y13.18317
G01 X-48.06743 Y13.27372
G01 X-48.02188 Y13.42381
G01 X-48.00276 Y13.51992
G01 X-47.98739 Y13.67600
G01 X-47.98739 Y13.77402
G01 X-48.00276 Y13.93011
G01 X-48.02188 Y14.02622
G01 X-48.06743 Y14.17631
G01 X-48.10492 Y14.26686
G01 X-48.17886 Y14.40516
G01 X-48.23331 Y14.48667
G01 X-48.28498 Y14.54964
G01 X-48.28498 Y16.04940
G01 X-48.23870 Y16.06345
G01 X-48.14815 Y16.10094
G01 X-48.00984 Y16.17488
G01 X-47.92834 Y16.22934
G01 X-47.80710 Y16.32883
G01 X-47.73778 Y16.39812
G01 X-47.63832 Y16.51936
G01 X-47.58386 Y16.60086
G01 X-47.50992 Y16.73917
G01 X-47.47241 Y16.82972
G01 X-47.42689 Y16.97981
G01 X-47.40776 Y17.07592
G01 X-47.39240 Y17.23200
G01 X-47.39240 Y17.33005
G01 X-47.40776 Y17.48613
G01 X-47.42689 Y17.58224
G01 X-47.47241 Y17.73233
G01 X-47.50992 Y17.82288
G01 X-47.58386 Y17.96119
G01 X-47.63832 Y18.04270
G01 X-47.73778 Y18.16390
G01 X-47.80710 Y18.23322
G01 X-47.92834 Y18.33269
G01 X-48.00984 Y18.38714
G01 X-48.14815 Y18.46108
G01 X-48.23870 Y18.49857
G01 X-48.38876 Y18.54412
G01 X-48.48490 Y18.56324
G01 X-48.64098 Y18.57861
G01 X-48.73900 Y18.57861
G01 X-48.89506 Y18.56324
G01 X-48.99120 Y18.54412
G01 X-49.14129 Y18.49857
G01 X-49.23184 Y18.46108
G01 X-49.37014 Y18.38714
G01 X-49.45165 Y18.33269
G01 X-49.57286 Y18.23322
G01 X-49.64217 Y18.16390
G01 X-49.74167 Y18.04270
G01 X-49.79612 Y17.96119
G01 X-49.87006 Y17.82288
G01 X-49.90755 Y17.73233
G01 X-49.95310 Y17.58224
G01 X-49.97220 Y17.48613
G01 X-49.98020 Y17.40503
G01 X-49.99209 Y17.39317
G01 X-50.02503 Y17.35679
G01 X-50.08721 Y17.28103
G01 X-50.14167 Y17.19952
G01 X-50.18789 Y17.11308
G01 X-50.22538 Y17.02250
G01 X-50.25386 Y16.92870
G01 X-50.27298 Y16.83256
G01 X-50.28258 Y16.73503
G01 X-50.28500 Y16.68601
G01 X-50.28500 Y14.72502
G01 X-52.33300 Y14.72502
G01 X-52.38200 Y14.72261
G01 X-52.47953 Y14.71301
G01 X-52.57567 Y14.69388
G01 X-52.66945 Y14.66544
G01 X-52.70666 Y14.65002
G01 X-52.75799 Y14.65002
G01 X-52.85553 Y14.64042
G01 X-52.94933 Y14.61194
G01 X-53.03574 Y14.56574
G01 X-53.11151 Y14.50356
G01 X-53.17371 Y14.42779
G01 X-53.21989 Y14.34136
G01 X-53.24839 Y14.24755
G01 X-53.25799 Y14.15002
G01 X-53.25799 Y14.09871
G01 X-53.27341 Y14.06150
G01 X-53.30186 Y13.96770
G01 X-53.32098 Y13.87156
G01 X-53.33058 Y13.77402
G01 X-53.33058 Y13.67600
G01 X-53.32098 Y13.57847
G01 X-53.30186 Y13.48233
G01 X-53.27341 Y13.38853
G01 X-53.25799 Y13.35132
G01 X-53.25799 Y13.30001
G01 X-53.24839 Y13.20247
G01 X-53.21989 Y13.10867
G01 X-53.17371 Y13.02223
G01 X-53.11151 Y12.94646
G01 X-53.03574 Y12.88429
G01 X-52.94933 Y12.83808
G01 X-52.85553 Y12.80961
G01 X-52.75799 Y12.80001
G01 X-52.70666 Y12.80001
G01 X-52.66945 Y12.78459
G01 X-52.57567 Y12.75614
G01 X-52.47953 Y12.73702
G01 X-52.38200 Y12.72742
G01 X-52.33300 Y12.72500
G01 X-50.28500 Y12.72500
G01 X-50.28500 Y12.20100
G01 X-50.28258 Y12.15200
G01 X-50.27298 Y12.05447
G01 X-50.25386 Y11.95833
G01 X-50.22541 Y11.86453
G01 X-50.18789 Y11.77398
G01 X-50.14169 Y11.68754
G01 X-50.08723 Y11.60603
G01 X-50.02505 Y11.53026
G01 X-49.99209 Y11.49391
G01 X-46.13189 Y7.63372
G01 X-46.15463 Y7.55879
G01 X-46.17375 Y7.46266
G01 X-46.20258 Y7.17002
G01 X-46.20258 Y7.07200
G01 X-46.17375 Y6.77937
G01 X-46.15463 Y6.68323
G01 X-46.06928 Y6.40185
G01 X-46.03177 Y6.31130
G01 X-45.89316 Y6.05196
G01 X-45.83870 Y5.97046
G01 X-45.65216 Y5.74315
G01 X-45.58285 Y5.67384
G01 X-45.35554 Y5.48730
G01 X-45.27404 Y5.43284
G01 X-45.01470 Y5.29423
G01 X-44.92415 Y5.25672
G01 X-44.64277 Y5.17137
G01 X-44.54663 Y5.15225
G01 X-44.25400 Y5.12342
G01 X-44.15598 Y5.12342
G01 X-43.86334 Y5.15225
G01 X-43.76721 Y5.17137
G01 X-43.48582 Y5.25672
G01 X-43.39527 Y5.29423
G01 X-43.37610 Y5.30447
G01 X-43.13594 Y5.43284
G01 X-43.05443 Y5.48730
G01 X-42.82713 Y5.67384
G01 X-42.75781 Y5.74315
G01 X-42.57127 Y5.97046
G01 X-42.51681 Y6.05196
G01 X-42.37821 Y6.31130
G01 X-42.34069 Y6.40185
G01 X-42.25535 Y6.68323
G01 X-42.23622 Y6.77937
G01 X-42.20739 Y7.07200
G04 P0 ( dwell for no time -- G64 should not smooth over this point )
G00 Z3.50000 ( retract )

G00 X-37.89429 Y13.31692 ( rapid move to begin. )
G01 F200.00000
( Mill infeed pass 1/1 )
G01 Z-0.20000
G04 P0 ( dwell for no time -- G64 should not smooth over this point )
G01 F400.00000
G01 X-37.89429 Y13.31692
G01 X-37.90743 Y13.27372
G01 X-37.94492 Y13.18317
G01 X-38.01886 Y13.04486
G01 X-38.07331 Y12.96336
G01 X-38.12498 Y12.90039
G01 X-38.12498 Y9.12102
G01 X-37.62498 Y9.12102
G01 X-37.52744 Y9.11139
G01 X-37.43364 Y9.08295
G01 X-37.34720 Y9.03674
G01 X-37.27143 Y8.97457
G01 X-37.20926 Y8.89880
G01 X-37.16305 Y8.81236
G01 X-37.13461 Y8.71856
G01 X-37.12498 Y8.62102
G01 X-37.12498 Y5.62100
G01 X-37.13461 Y5.52347
G01 X-37.16305 Y5.42966
G01 X-37.20926 Y5.34323
G01 X-37.22328 Y5.32613
G01 X-37.27143 Y5.26746
G01 X-37.34720 Y5.20528
G01 X-37.43364 Y5.15908
G01 X-37.52744 Y5.13063
G01 X-37.62498 Y5.12100
G01 X-40.62500 Y5.12100
G01 X-40.72253 Y5.13063
G01 X-40.81634 Y5.15908
G01 X-40.90277 Y5.20528
G01 X-40.97854 Y5.26746
G01 X-41.04072 Y5.34323
G01 X-41.08692 Y5.42966
G01 X-41.11537 Y5.52347
G01 X-41.12500 Y5.62100
G01 X-41.12500 Y8.62102
G01 X-41.11537 Y8.71856
G01 X-41.08692 Y8.81236
G01 X-41.04072 Y8.89880
G01 X-40.97854 Y8.97457
G01 X-40.90277 Y9.03674
G01 X-40.81634 Y9.08295
G01 X-40.72253 Y9.11139
G01 X-40.62500 Y9.12102
G01 X-40.12500 Y9.12102
G01 X-40.12500 Y12.90039
G01 X-40.17666 Y12.96336
G01 X-40.23112 Y13.04486
G01 X-40.30506 Y13.18317
G01 X-40.34255 Y13.27372
G01 X-40.38809 Y13.42381
G01 X-40.40722 Y13.51992
G01 X-40.42258 Y13.67600
G01 X-40.42258 Y13.77402
G01 X-40.40722 Y13.93011
G01 X-40.38809 Y14.02622
G01 X-40.34255 Y14.17631
G01 X-40.30506 Y14.26686
G01 X-40.23112 Y14.40516
G01 X-40.17666 Y14.48667
G01 X-40.12500 Y14.54964
G01 X-40.12500 Y17.37181
G01 X-40.22929 Y17.45740
G01 X-40.29861 Y17.52672
G01 X-40.42297 Y17.67826
G01 X-40.47742 Y17.75976
G01 X-40.56983 Y17.93264
G01 X-40.60734 Y18.02319
G01 X-40.66424 Y18.21079
G01 X-40.68337 Y18.30691
G01 X-40.70257 Y18.50203
G01 X-40.70257 Y18.60002
G01 X-40.68337 Y18.79512
G01 X-40.66424 Y18.89123
G01 X-40.60734 Y19.07886
G01 X-40.56983 Y19.16941
G01 X-40.47742 Y19.34229
G01 X-40.42297 Y19.42377
G01 X-40.29861 Y19.57531
G01 X-40.22929 Y19.64462
G01 X-40.20498 Y19.66459
G01 X-40.20498 Y23.15244
G01 X-40.22929 Y23.17240
G01 X-40.29861 Y23.24172
G01 X-40.42297 Y23.39326
G01 X-40.47742 Y23.47474
G01 X-40.56983 Y23.64764
G01 X-40.60734 Y23.73819
G01 X-40.66424 Y23.92579
G01 X-40.68337 Y24.02191
G01 X-40.70257 Y24.21700
G01 X-40.70257 Y24.31502
G01 X-40.69950 Y24.34631
G01 X-44.82618 Y28.47300
G01 X-47.90431 Y28.47300
G01 X-47.93537 Y28.48413
G01 X-48.02841 Y28.51242
G01 X-48.18523 Y28.55169
G01 X-48.26623 Y28.56785
G01 X-48.42308 Y28.59111
G01 X-48.49714 Y28.59843
G01 X-48.65396 Y28.60615
G01 X-48.72597 Y28.60615
G01 X-48.73697 Y28.60559
G01 X-48.77334 Y28.60470
G01 X-48.87182 Y28.60470
G01 X-48.88345 Y28.60480
G01 X-48.94881 Y28.60579
G01 X-48.96138 Y28.60589
G01 X-49.05122 Y28.60589
G01 X-49.12620 Y28.60899
G01 X-49.14253 Y28.61031
G01 X-49.22780 Y28.61372
G01 X-49.24558 Y28.61372
G01 X-49.25046 Y28.61631
G01 X-49.33196 Y28.67077
G01 X-49.40773 Y28.73295
G01 X-49.44408 Y28.76591
G01 X-51.78200 Y31.10381
G01 X-51.86307 Y31.11178
G01 X-51.95921 Y31.13091
G01 X-52.10925 Y31.17645
G01 X-52.19983 Y31.21394
G01 X-52.33811 Y31.28788
G01 X-52.36958 Y31.30889
G01 X-52.41961 Y31.34234
G01 X-52.54087 Y31.44183
G01 X-52.61019 Y31.51112
G01 X-52.70966 Y31.63236
G01 X-52.76411 Y31.71386
G01 X-52.77219 Y31.72893
G01 X-52.81354 Y31.86530
G01 X-52.82109 Y31.89149
G01 X-52.83810 Y31.95402
G01 X-52.84537 Y31.97929
G01 X-52.88332 Y32.10424
G01 X-52.90425 Y32.18679
G01 X-52.90539 Y32.19237
G01 X-52.92700 Y32.27739
G01 X-52.94771 Y32.34579
G01 X-52.95553 Y32.37708
G01 X-52.95558 Y32.44302
G01 X-52.94019 Y32.59911
G01 X-52.92109 Y32.69522
G01 X-52.90798 Y32.73842
G01 X-52.90795 Y35.44462
G01 X-52.90049 Y35.48193
G01 X-52.87725 Y35.63875
G01 X-52.86828 Y35.72978
G01 X-52.86056 Y35.88658
G01 X-52.85947 Y35.93100
G01 X-52.85947 Y36.24403
G01 X-52.85837 Y36.28835
G01 X-52.85116 Y36.43539
G01 X-52.84214 Y36.52640
G01 X-52.84097 Y36.53450
G01 X-52.84097 Y36.99747
G01 X-52.83409 Y37.03222
G01 X-52.78855 Y37.18231
G01 X-52.75103 Y37.27286
G01 X-52.67712 Y37.41116
G01 X-52.62266 Y37.49267
G01 X-52.52314 Y37.61390
G01 X-52.45388 Y37.68319
G01 X-52.33262 Y37.78269
G01 X-52.25111 Y37.83714
G01 X-52.11283 Y37.91108
G01 X-52.02226 Y37.94860
G01 X-51.87219 Y37.99412
G01 X-51.77608 Y38.01324
G01 X-51.62000 Y38.02861
G01 X-51.52198 Y38.02861
G01 X-51.36590 Y38.01324
G01 X-51.26978 Y37.99412
G01 X-51.11969 Y37.94860
G01 X-51.02914 Y37.91108
G01 X-50.89084 Y37.83714
G01 X-50.80933 Y37.78269
G01 X-50.68810 Y37.68319
G01 X-50.61880 Y37.61390
G01 X-50.55099 Y37.53125
G01 X-50.51931 Y37.49267
G01 X-50.46486 Y37.41116
G01 X-50.39092 Y37.27286
G01 X-50.35343 Y37.18231
G01 X-50.30788 Y37.03222
G01 X-50.30097 Y36.99747
G01 X-50.30097 Y35.66443
G01 X-50.29409 Y35.62981
G01 X-50.24855 Y35.47972
G01 X-50.21106 Y35.38917
G01 X-50.13712 Y35.25087
G01 X-50.08266 Y35.16936
G01 X-49.98317 Y35.04812
G01 X-49.91388 Y34.97883
G01 X-49.79264 Y34.87934
G01 X-49.71114 Y34.82488
G01 X-49.57283 Y34.75094
G01 X-49.48228 Y34.71343
G01 X-49.33219 Y34.66791
G01 X-49.23608 Y34.64878
G01 X-49.08000 Y34.63342
G01 X-48.98198 Y34.63342
G01 X-48.82589 Y34.64878
G01 X-48.72978 Y34.66791
G01 X-48.57969 Y34.71343
G01 X-48.48914 Y34.75094
G01 X-48.35084 Y34.82488
G01 X-48.26933 Y34.87934
G01 X-48.14810 Y34.97883
G01 X-48.07880 Y35.04812
G01 X-47.97931 Y35.16936
G01 X-47.92486 Y35.25087
G01 X-47.90794 Y35.28251
G04 P0 ( dwell for no time -- G64 should not smooth over this point )
G00 Z3.50000 ( retract )

G00 X-50.30097 Y36.99747 ( rapid move to begin. )
G01 F200.00000
( Mill infeed pass 1/1 )
G01 Z-0.20000
G04 P0 ( dwell for no time -- G64 should not smooth over this point )
G01 F400.00000
G01 X-50.30097 Y36.99747
G01 X-50.29409 Y37.03222
G01 X-50.24855 Y37.18231
G01 X-50.21106 Y37.27286
G01 X-50.13712 Y37.41116
G01 X-50.08266 Y37.49267
G01 X-49.98317 Y37.61390
G01 X-49.91388 Y37.68319
G01 X-49.79264 Y37.78269
G01 X-49.71114 Y37.83714
G01 X-49.57283 Y37.91108
G01 X-49.48228 Y37.94860
G01 X-49.33219 Y37.99412
G01 X-49.23608 Y38.01324
G01 X-49.08000 Y38.02861
G01 X-48.98198 Y38.02861
G01 X-48.82589 Y38.01324
G01 X-48.72978 Y37.99412
G01 X-48.57969 Y37.94860
G01 X-48.48914 Y37.91108
G01 X-48.35084 Y37.83714
G01 X-48.26933 Y37.78269
G01 X-48.14810 Y37.68319
G01 X-48.07880 Y37.61390
G01 X-47.97931 Y37.49267
G01 X-47.92486 Y37.41116
G01 X-47.85092 Y37.27286
G01 X-47.81343 Y37.18231
G01 X-47.76788 Y37.03222
G01 X-47.76097 Y36.99747
G04 P0 ( dwell for no time -- G64 should not smooth over this point )
G00 Z3.50000 ( retract )

G00 X-45.22097 Y36.99747 ( rapid move to begin. )
G01 F200.00000
( Mill infeed pass 1/1 )
G01 Z-0.20000
G04 P0 ( dwell for no time -- G64 should not smooth over this point )
G01 F400.00000
G01 X-45.22097 Y36.99747
G01 X-45.21409 Y37.03222
G01 X-45.16855 Y37.18231
G01 X-45.13106 Y37.27286
G01 X-45.05712 Y37.41116
G01 X-45.00266 Y37.49267
G01 X-44.90317 Y37.61390
G01 X-44.83388 Y37.68319
G01 X-44.71264 Y37.78269
G01 X-44.63114 Y37.83714
G01 X-44.49283 Y37.91108
G01 X-44.40228 Y37.94860
G01 X-44.25219 Y37.99412
G01 X-44.15608 Y38.01324
G01 X-44.00000 Y38.02861
G01 X-43.90198 Y38.02861
G01 X-43.74589 Y38.01324
G01 X-43.64978 Y37.99412
G01 X-43.49969 Y37.94860
G01 X-43.40914 Y37.91108
G01 X-43.27084 Y37.83714
G01 X-43.18933 Y37.78269
G01 X-43.06810 Y37.68319
G01 X-42.99880 Y37.61390
G01 X-42.93099 Y37.53125
G01 X-42.89931 Y37.49267
G01 X-42.84486 Y37.41116
G01 X-42.77092 Y37.27286
G01 X-42.73343 Y37.18231
G01 X-42.68788 Y37.03222
G01 X-42.68097 Y36.99747
G04 P0 ( dwell for no time -- G64 should not smooth over this point )
G00 Z3.50000 ( retract )

G00 X-45.22097 Y35.66443 ( rapid move to begin. )
G01 F200.00000
( Mill infeed pass 1/1 )
G01 Z-0.20000
G04 P0 ( dwell for no time -- G64 should not smooth over this point )
G01 F400.00000
G01 X-45.22097 Y35.66443
G01 X-45.22788 Y35.62981
G01 X-45.27343 Y35.47972
G01 X-45.31092 Y35.38917
G01 X-45.38486 Y35.25087
G01 X-45.40797 Y35.21627
G01 X-45.40797 Y33.64401
G01 X-44.82181 Y33.64401
G04 P0 ( dwell for no time -- G64 should not smooth over this point )
G00 Z3.50000 ( retract )

G00 X-47.90431 Y28.47300 ( rapid move to begin. )
G01 F200.00000
( Mill infeed pass 1/1 )
G01 Z-0.20000
G04 P0 ( dwell for no time -- G64 should not smooth over this point )
G01 F400.00000
G01 X-47.90431 Y28.47300
G01 X-47.80710 Y28.39320
G01 X-47.73778 Y28.32390
G01 X-47.63832 Y28.20267
G01 X-47.58386 Y28.12116
G01 X-47.50992 Y27.98286
G01 X-47.47241 Y27.89231
G01 X-47.42689 Y27.74222
G01 X-47.40776 Y27.64611
G01 X-47.39240 Y27.49002
G01 X-47.39240 Y27.39200
G01 X-47.40776 Y27.23592
G01 X-47.42689 Y27.13981
G01 X-47.47241 Y26.98972
G01 X-47.50992 Y26.89917
G01 X-47.58386 Y26.76086
G01 X-47.63832 Y26.67936
G01 X-47.73778 Y26.55812
G01 X-47.80710 Y26.48883
G01 X-47.92834 Y26.38934
G01 X-48.00984 Y26.33488
G01 X-48.14815 Y26.26094
G01 X-48.23870 Y26.22345
G01 X-48.38876 Y26.17791
G01 X-48.48490 Y26.15878
G01 X-48.64098 Y26.14342
G01 X-48.73900 Y26.14342
G01 X-48.89506 Y26.15878
G01 X-48.99120 Y26.17791
G01 X-49.14129 Y26.22345
G01 X-49.23184 Y26.26094
G01 X-49.37014 Y26.33488
G01 X-49.45165 Y26.38934
G01 X-49.51462 Y26.44100
G01 X-50.39478 Y26.44100
G01 X-50.81687 Y26.01893
G01 X-50.85322 Y25.98596
G01 X-50.92899 Y25.92378
G01 X-51.01050 Y25.86932
