( pcb2gcode 2.5.0 )
( Software-independent Gcode )

( This file uses 2 drill bit sizes. )
( Bit sizes: [0.8mm] [1mm] )

G94       (Millimeters per minute feed rate.)
G21       (Units == Millimeters.)
G90       (Absolute coordinates.)
G00 S20000     (RPM spindle speed.)

G00 Z30.00000 (Retract)
T1
M5      (Spindle stop.)
G04 P1.00000
(MSG, Change tool bit to drill size 0.8mm)
M6      (Tool change.)
M0      (Temporary machine stop.)
M3      (Spindle on clockwise.)
G0 Z3.50000
G04 P1.00000

G81 R3.50000 Z-1.75000 F200.00000 X-6.61300 Y15.75700
X-12.94800 Y22.60500
X-12.94800 Y25.14500
X-12.94800 Y27.68500
X-12.94800 Y30.22500
X-5.32800 Y22.60500
X-5.32800 Y25.14500
X-5.32800 Y27.68500
X-5.32800 Y30.22500
X-7.12100 Y36.58500
X-13.21700 Y33.53700
X-17.13900 Y27.65500
X-21.85300 Y27.44100
X-17.28100 Y22.57500
X-28.96500 Y6.10500
X-36.58500 Y14.23300
X-34.04500 Y16.77300
X-36.07700 Y21.85300
X-39.12500 Y13.72500
X-49.28500 Y13.72500
X-52.33300 Y13.72500
X-48.69000 Y17.28100
X-34.04500 Y29.98100
X-40.72400 Y28.33100
X-46.65800 Y32.39400
X-48.69000 Y27.44100
X-51.65800 Y32.39400
X-54.36500 Y31.63100
X-56.39700 Y31.50500
X-56.65100 Y36.33100
X-54.11100 Y36.33100
X-51.57100 Y36.33100
X-49.03100 Y36.33100
X-46.49100 Y36.33100
X-43.95100 Y36.33100
X-41.41100 Y36.33100
X-38.87100 Y36.33100
X-36.33100 Y36.33100
X-33.79100 Y36.33100
X-41.41100 Y43.95100
X-38.87100 Y43.95100
X-36.33100 Y43.95100
X-33.79100 Y43.95100
X-27.44100 Y37.60100
X-25.91700 Y41.15700
X-21.85300 Y37.60100
X-17.13900 Y37.81500
X-14.74100 Y38.10900
X-16.77300 Y44.24500
X-16.77300 Y49.24500
X-13.21700 Y51.82500
X-3.56500 Y54.36500
X-13.72500 Y54.36500
X-16.77300 Y54.40500
X-16.77300 Y59.40500
X-26.42500 Y65.23700
X-26.42500 Y62.69700
X-28.45700 Y58.93700
X-35.06100 Y57.41300
X-35.06100 Y54.36500
X-42.17300 Y50.49000
X-42.17300 Y47.99000
X-43.95100 Y43.95100
X-46.49100 Y43.95100
X-47.29300 Y47.63400
X-49.03100 Y43.95100
X-51.57100 Y43.95100
X-54.11100 Y43.95100
X-52.29300 Y47.63400
X-53.85700 Y53.38900
X-49.79300 Y53.34900
X-45.22100 Y54.36500
X-45.22100 Y57.41300
X-49.79300 Y58.34900
X-53.85700 Y58.38900
X-57.92100 Y57.41300
X-57.92100 Y54.36500
X-68.08100 Y57.41300
X-68.08100 Y54.36500
X-70.62100 Y45.22100
X-66.81100 Y43.95100
X-64.27100 Y43.95100
X-61.73100 Y43.95100
X-59.19100 Y43.95100
X-56.65100 Y43.95100
X-59.19100 Y36.33100
X-61.73100 Y36.33100
X-64.27100 Y36.33100
X-66.81100 Y36.33100
X-70.62100 Y35.06100
X-70.11300 Y32.52100
X-72.14500 Y29.94100
X-72.14500 Y24.94100
X-72.14500 Y22.36100
X-72.14500 Y12.20100
G80

G00 Z30.00000 (Retract)
T5
M5      (Spindle stop.)
G04 P1.00000
(MSG, Change tool bit to drill size 1mm)
M6      (Tool change.)
M0      (Temporary machine stop.)
M3      (Spindle on clockwise.)
G0 Z3.50000
G04 P1.00000

G81 R3.50000 Z-1.75000 F200.00000 X-9.66100 Y7.12100
X-14.74100 Y7.12100
X-19.82100 Y7.12100
X-14.61400 Y13.76500
X-14.61400 Y18.76500
X-20.32900 Y18.76500
X-20.32900 Y13.76500
X-27.30900 Y19.31300
X-27.30900 Y21.85300
X-27.30900 Y24.39300
X-27.30900 Y26.93300
X-29.84900 Y26.93300
X-29.84900 Y24.39300
X-29.84900 Y21.85300
X-29.84900 Y19.31300
X-27.30900 Y16.77300
X-29.84900 Y16.77300
X-39.20500 Y24.26600
X-44.20500 Y24.26600
X-39.20500 Y18.55100
X-44.20500 Y18.55100
X-39.12500 Y7.12100
X-44.20500 Y7.12100
X-49.28500 Y7.12100
X-56.90500 Y7.12100
X-61.98500 Y7.12100
X-67.06500 Y7.12100
X-72.14500 Y7.12100
X-56.24700 Y16.72600
X-58.74700 Y26.72600
X-53.74700 Y26.72600
X-61.87300 Y48.77700
X-64.41300 Y48.77700
X-66.95300 Y48.77700
X-68.58900 Y64.52500
X-63.50900 Y64.52500
X-58.42900 Y64.52500
X-45.22100 Y64.52500
X-40.14100 Y64.52500
X-35.06100 Y64.52500
X-28.45700 Y54.32500
X-28.45700 Y49.32500
X-21.34500 Y46.74500
X-21.34500 Y49.28500
X-21.34500 Y51.82500
X-22.36100 Y60.20700
X-22.36100 Y62.74700
X-22.36100 Y65.28700
X-7.12100 Y64.52500
X-7.12100 Y59.44500
X-7.12100 Y49.28500
X-7.12100 Y44.20500
G80

G00 Z30.000 ( All done -- retract )

M5      (Spindle off.)
G04 P1.000000
M9      (Coolant off.)
M2      (Program end.)

