( pcb2gcode 2.5.0 )
( Software-independent Gcode )

G94 ( Millimeters per minute feed rate. )
G21 ( Units == Millimeters. )

G90 ( Absolute coordinates. )
G00 S20000 ( RPM spindle speed. )
G64 P0.05000 ( set maximum deviation from commanded toolpath )
G01 F200.00000 ( Feedrate. )


G00 Z30.00000 (Retract to tool change height)
T1
M5      (Spindle stop.)
G04 P1.00000 (Wait for spindle to stop)
(MSG, Change tool bit to cutter diameter 1.00000mm)
M6      (Tool change.)
M0      (Temporary machine stop.)
M3 ( Spindle on clockwise. )
G04 P1.00000 (Wait for spindle to get up to speed)
G04 P0 ( dwell for no time -- G64 should not smooth over this point )
G00 Z3.50000 ( retract )

G00 X-0.52500 Y1.02500 ( rapid move to begin. )
G01 Z-0.42500 F60.00000 ( plunge. )
G04 P0 ( dwell for no time -- G64 should not smooth over this point )
G01 F200.00000
G01 X-0.52500 Y34.56900
G01 X-0.52500 Y36.56900
G01 X-0.52500 Y70.11300
G01 X-0.53463 Y70.21054
G01 X-0.56308 Y70.30434
G01 X-0.60928 Y70.39077
G01 X-0.67146 Y70.46654
G01 X-0.74723 Y70.52872
G01 X-0.83366 Y70.57492
G01 X-0.92746 Y70.60337
G01 X-1.02500 Y70.61300
G01 X-75.70100 Y70.61300
G01 X-75.79854 Y70.60337
G01 X-75.89234 Y70.57492
G01 X-75.97877 Y70.52872
G01 X-76.05454 Y70.46654
G01 X-76.11672 Y70.39077
G01 X-76.16292 Y70.30434
G01 X-76.19137 Y70.21054
G01 X-76.20100 Y70.11300
G01 X-76.20100 Y36.56900
G01 X-76.20100 Y34.56900
G01 X-76.20100 Y1.02500
G01 X-76.19137 Y0.92746
G01 X-76.16292 Y0.83366
G01 X-76.11672 Y0.74723
G01 X-76.05454 Y0.67146
G01 X-75.97877 Y0.60928
G01 X-75.89234 Y0.56308
G01 X-75.79854 Y0.53463
G01 X-75.70100 Y0.52500
G01 X-1.02500 Y0.52500
G01 X-0.92746 Y0.53463
G01 X-0.83366 Y0.56308
G01 X-0.74723 Y0.60928
G01 X-0.67146 Y0.67146
G01 X-0.60928 Y0.74723
G01 X-0.56308 Y0.83366
G01 X-0.53463 Y0.92746
G01 X-0.52500 Y1.02500
G01 Z-0.85000 F60.00000 ( plunge. )
G04 P0 ( dwell for no time -- G64 should not smooth over this point )
G01 F200.00000
G01 X-0.52500 Y34.56900
G00 Z-0.60000
G01 X-0.52500 Y36.56900
G01 Z-0.85000 F60.00000
G01 F200.00000
G01 X-0.52500 Y70.11300
G01 X-0.53463 Y70.21054
G01 X-0.56308 Y70.30434
G01 X-0.60928 Y70.39077
G01 X-0.67146 Y70.46654
G01 X-0.74723 Y70.52872
G01 X-0.83366 Y70.57492
G01 X-0.92746 Y70.60337
G01 X-1.02500 Y70.61300
G01 X-75.70100 Y70.61300
G01 X-75.79854 Y70.60337
G01 X-75.89234 Y70.57492
G01 X-75.97877 Y70.52872
G01 X-76.05454 Y70.46654
G01 X-76.11672 Y70.39077
G01 X-76.16292 Y70.30434
G01 X-76.19137 Y70.21054
G01 X-76.20100 Y70.11300
G01 X-76.20100 Y36.56900
G00 Z-0.60000
G01 X-76.20100 Y34.56900
G01 Z-0.85000 F60.00000
G01 F200.00000
G01 X-76.20100 Y1.02500
G01 X-76.19137 Y0.92746
G01 X-76.16292 Y0.83366
G01 X-76.11672 Y0.74723
G01 X-76.05454 Y0.67146
G01 X-75.97877 Y0.60928
G01 X-75.89234 Y0.56308
G01 X-75.79854 Y0.53463
G01 X-75.70100 Y0.52500
G01 X-1.02500 Y0.52500
G01 X-0.92746 Y0.53463
G01 X-0.83366 Y0.56308
G01 X-0.74723 Y0.60928
G01 X-0.67146 Y0.67146
G01 X-0.60928 Y0.74723
G01 X-0.56308 Y0.83366
G01 X-0.53463 Y0.92746
G01 X-0.52500 Y1.02500
G01 Z-1.27500 F60.00000 ( plunge. )
G04 P0 ( dwell for no time -- G64 should not smooth over this point )
G01 F200.00000
G01 X-0.52500 Y34.56900
G00 Z-0.60000
G01 X-0.52500 Y36.56900
G01 Z-1.27500 F60.00000
G01 F200.00000
G01 X-0.52500 Y70.11300
G01 X-0.53463 Y70.21054
G01 X-0.56308 Y70.30434
G01 X-0.60928 Y70.39077
G01 X-0.67146 Y70.46654
G01 X-0.74723 Y70.52872
G01 X-0.83366 Y70.57492
G01 X-0.92746 Y70.60337
G01 X-1.02500 Y70.61300
G01 X-75.70100 Y70.61300
G01 X-75.79854 Y70.60337
G01 X-75.89234 Y70.57492
G01 X-75.97877 Y70.52872
G01 X-76.05454 Y70.46654
G01 X-76.11672 Y70.39077
G01 X-76.16292 Y70.30434
G01 X-76.19137 Y70.21054
G01 X-76.20100 Y70.11300
G01 X-76.20100 Y36.56900
G00 Z-0.60000
G01 X-76.20100 Y34.56900
G01 Z-1.27500 F60.00000
G01 F200.00000
G01 X-76.20100 Y1.02500
G01 X-76.19137 Y0.92746
G01 X-76.16292 Y0.83366
G01 X-76.11672 Y0.74723
G01 X-76.05454 Y0.67146
G01 X-75.97877 Y0.60928
G01 X-75.89234 Y0.56308
G01 X-75.79854 Y0.53463
G01 X-75.70100 Y0.52500
G01 X-1.02500 Y0.52500
G01 X-0.92746 Y0.53463
G01 X-0.83366 Y0.56308
G01 X-0.74723 Y0.60928
G01 X-0.67146 Y0.67146
G01 X-0.60928 Y0.74723
G01 X-0.56308 Y0.83366
G01 X-0.53463 Y0.92746
G01 X-0.52500 Y1.02500
G01 Z-1.70000 F60.00000 ( plunge. )
G04 P0 ( dwell for no time -- G64 should not smooth over this point )
G01 F200.00000
G01 X-0.52500 Y34.56900
G00 Z-0.60000
G01 X-0.52500 Y36.56900
G01 Z-1.70000 F60.00000
G01 F200.00000
G01 X-0.52500 Y70.11300
G01 X-0.53463 Y70.21054
G01 X-0.56308 Y70.30434
G01 X-0.60928 Y70.39077
G01 X-0.67146 Y70.46654
G01 X-0.74723 Y70.52872
G01 X-0.83366 Y70.57492
G01 X-0.92746 Y70.60337
G01 X-1.02500 Y70.61300
G01 X-75.70100 Y70.61300
G01 X-75.79854 Y70.60337
G01 X-75.89234 Y70.57492
G01 X-75.97877 Y70.52872
G01 X-76.05454 Y70.46654
G01 X-76.11672 Y70.39077
G01 X-76.16292 Y70.30434
G01 X-76.19137 Y70.21054
G01 X-76.20100 Y70.11300
G01 X-76.20100 Y36.56900
G00 Z-0.60000
G01 X-76.20100 Y34.56900
G01 Z-1.70000 F60.00000
G01 F200.00000
G01 X-76.20100 Y1.02500
G01 X-76.19137 Y0.92746
G01 X-76.16292 Y0.83366
G01 X-76.11672 Y0.74723
G01 X-76.05454 Y0.67146
G01 X-75.97877 Y0.60928
G01 X-75.89234 Y0.56308
G01 X-75.79854 Y0.53463
G01 X-75.70100 Y0.52500
G01 X-1.02500 Y0.52500
G01 X-0.92746 Y0.53463
G01 X-0.83366 Y0.56308
G01 X-0.74723 Y0.60928
G01 X-0.67146 Y0.67146
G01 X-0.60928 Y0.74723
G01 X-0.56308 Y0.83366
G01 X-0.53463 Y0.92746
G01 X-0.52500 Y1.02500

G04 P0 ( dwell for no time -- G64 should not smooth over this point )
G00 Z30.000000 ( retract )

M5 ( Spindle off. )
G04 P1.000000
M9 ( Coolant off. )
M2 ( Program end. )

